(/Applications/pcbgcode.repo/pcb-gcode.ulp)
(Copyright 2005 - 2012 by John Johnson)
(See readme.txt for licensing terms.)
(This file generated from the board:)
(.../ring_modulator/eagle/ringmod_1496.brd)
(Current profile is .../pcbgcode.repo/profiles/mach.pp  )
(This file generated 3/22/15 8:08 PM)
(Settings from pcb-machine.h)
(spindle on time = 0.0000)
(  Tool Size)
(0.0100  )
(spindle speed = 30000.0000)
(tool change at 0.0000  0.0000  3.0000  )
(feed rate xy = F20    )
(feed rate z  = F10    )
(Z Axis Settings)
(  High     Up        Down     Drill)
(1.0000  	0.0500  	-0.0040 	-0.0730 )
(Settings from pcb-defaults.h)
(isolate min = 0.0010)
(isolate max = 0.0050)
(isolate step = 0.0010)
(Generated bottom outlines, bottom drill, )
(Unit of measure: inch)
(Inch Mode)
G20
(Absolute Coordinates)
G90
S30000
G00 Z1.0000  
G00 X0.0000  Y0.0000  
M03
G04 P0.000000
G00 Z0.0500  
G00 X-0.1302 Y0.1003  
G01 Z-0.0040 F10    
G01 X-0.1306 Y0.1001  F20    
G01 X-0.1308 Y0.0998  
G01 X-0.1327 Y0.0987  
G01 X-0.1345 Y0.0976  
G01 X-0.1348 Y0.0975  
G01 X-0.1352 Y0.0973  
G01 X-0.1372 Y0.0967  
G01 X-0.1392 Y0.0961  
G01 X-0.1396 Y0.0961  
G01 X-0.1400 Y0.0960  
G01 X-0.1421 Y0.0960  
G01 X-0.1442 Y0.0959  
G01 X-0.1446 Y0.0960  
G01 X-0.3627 Y0.0960  
G01 X-0.3630 Y0.0959  
G01 X-0.3652 Y0.0960  
G01 X-0.3675 Y0.0960  
G01 X-0.3677 Y0.0961  
G01 X-0.3680 Y0.0961  
G01 X-0.3701 Y0.0967  
G01 X-0.3723 Y0.0973  
G01 X-0.3725 Y0.0974  
G01 X-0.3728 Y0.0975  
G01 X-0.3747 Y0.0987  
G01 X-0.3767 Y0.0998  
G01 X-0.3768 Y0.1000  
G01 X-0.3770 Y0.1001  
G01 X-0.3786 Y0.1017  
G01 X-0.3802 Y0.1033  
G01 X-0.3803 Y0.1035  
G01 X-0.5737 Y0.3066  
G01 X-0.9656 Y0.3360  
G01 X-0.9674 Y0.3360  
G01 X-0.9681 Y0.3362  
G01 X-0.9689 Y0.3362  
G01 X-0.9705 Y0.3368  
G01 X-0.9722 Y0.3372  
G01 X-0.9729 Y0.3376  
G01 X-0.9736 Y0.3379  
G01 X-0.9751 Y0.3389  
G01 X-0.9766 Y0.3397  
G01 X-0.9771 Y0.3403  
G01 X-0.9778 Y0.3407  
G01 X-0.9789 Y0.3420  
G01 X-0.9801 Y0.3432  
G01 X-0.9805 Y0.3439  
G01 X-0.9810 Y0.3445  
G01 X-0.9818 Y0.3461  
G01 X-1.0652 Y0.4883  
G01 X-1.0664 Y0.4905  
G01 X-1.0677 Y0.4925  
G01 X-1.0677 Y0.4927  
G01 X-1.0683 Y0.4950  
G01 X-1.0690 Y0.4974  
G01 X-1.0690 Y0.4975  
G01 X-1.0690 Y0.4999  
G01 X-1.0690 Y0.5024  
G01 X-1.0690 Y0.5760  
G01 X-1.2315 Y0.7856  
G01 X-1.4243 Y0.7764  
G01 X-1.5873 Y0.6133  
G01 X-1.5908 Y0.6098  
G01 X-1.5952 Y0.6073  
G01 X-1.6000 Y0.6060  
G01 X-1.8060 Y0.6060  
G01 X-1.8060 Y0.3829  
G01 X-1.6921 Y0.2690  
G01 X-1.5418 Y0.2690  
G01 X-1.5178 Y0.2930  
G01 X-1.4822 Y0.2930  
G01 X-1.4570 Y0.2678  
G01 X-1.4570 Y0.2322  
G01 X-1.4810 Y0.2082  
G01 X-1.4810 Y0.1918  
G01 X-1.4570 Y0.1678  
G01 X-1.4570 Y0.1322  
G01 X-1.4822 Y0.1070  
G01 X-1.5178 Y0.1070  
G01 X-1.5430 Y0.1322  
G01 X-1.5430 Y0.1678  
G01 X-1.5190 Y0.1918  
G01 X-1.5190 Y0.2082  
G01 X-1.5418 Y0.2310  
G01 X-1.7025 Y0.2310  
G01 X-1.7073 Y0.2323  
G01 X-1.7117 Y0.2348  
G01 X-1.8367 Y0.3598  
G01 X-1.8402 Y0.3633  
G01 X-1.8427 Y0.3677  
G01 X-1.8440 Y0.3725  
G01 X-1.8440 Y0.6171  
G01 X-1.9867 Y0.7598  
G01 X-1.9902 Y0.7633  
G01 X-1.9927 Y0.7677  
G01 X-1.9940 Y0.7725  
G01 X-1.9940 Y0.8275  
G01 X-1.9927 Y0.8323  
G01 X-1.9902 Y0.8367  
G01 X-1.9277 Y0.8992  
G01 X-1.9242 Y0.9027  
G01 X-1.9198 Y0.9052  
G01 X-1.9150 Y0.9065  
G01 X-1.8829 Y0.9065  
G01 X-1.8320 Y0.9574  
G01 X-1.8320 Y0.9633  
G01 X-1.8133 Y0.9820  
G01 X-1.7949 Y0.9820  
G01 X-1.7190 Y1.0579  
G01 X-1.7190 Y1.0742  
G01 X-1.7204 Y1.0751  
G01 X-1.7249 Y1.0796  
G01 X-1.7284 Y1.0848  
G01 X-1.7308 Y1.0907  
G01 X-1.7320 Y1.0968  
G01 X-1.7320 Y1.1032  
G01 X-1.7308 Y1.1093  
G01 X-1.7284 Y1.1152  
G01 X-1.7249 Y1.1204  
G01 X-1.7204 Y1.1249  
G01 X-1.7152 Y1.1284  
G01 X-1.7093 Y1.1308  
G01 X-1.7032 Y1.1320  
G01 X-1.6968 Y1.1320  
G01 X-1.6907 Y1.1308  
G01 X-1.6848 Y1.1284  
G01 X-1.6796 Y1.1249  
G01 X-1.6751 Y1.1204  
G01 X-1.6716 Y1.1152  
G01 X-1.6692 Y1.1093  
G01 X-1.6680 Y1.1032  
G01 X-1.6680 Y1.0968  
G01 X-1.6692 Y1.0907  
G01 X-1.6716 Y1.0848  
G01 X-1.6751 Y1.0796  
G01 X-1.6796 Y1.0751  
G01 X-1.6810 Y1.0742  
G01 X-1.6810 Y1.0475  
G01 X-1.6823 Y1.0427  
G01 X-1.6848 Y1.0383  
G01 X-1.7680 Y0.9551  
G01 X-1.7680 Y0.9367  
G01 X-1.7867 Y0.9180  
G01 X-1.8133 Y0.9180  
G01 X-1.8154 Y0.9202  
G01 X-1.8633 Y0.8723  
G01 X-1.8677 Y0.8698  
G01 X-1.8725 Y0.8685  
G01 X-1.9046 Y0.8685  
G01 X-1.9560 Y0.8171  
G01 X-1.9560 Y0.7829  
G01 X-1.8171 Y0.6440  
G01 X-1.6104 Y0.6440  
G01 X-1.4463 Y0.8081  
G01 X-1.4449 Y0.8096  
G01 X-1.4445 Y0.8099  
G01 X-1.4442 Y0.8102  
G01 X-1.4424 Y0.8112  
G01 X-1.4407 Y0.8123  
G01 X-1.4402 Y0.8125  
G01 X-1.4398 Y0.8127  
G01 X-1.4379 Y0.8132  
G01 X-1.4359 Y0.8139  
G01 X-1.4354 Y0.8139  
G01 X-1.4350 Y0.8140  
G01 X-1.4330 Y0.8140  
G01 X-1.2242 Y0.8239  
G01 X-1.2226 Y0.8242  
G01 X-1.2218 Y0.8241  
G01 X-1.2209 Y0.8241  
G01 X-1.2193 Y0.8237  
G01 X-1.2176 Y0.8235  
G01 X-1.2168 Y0.8232  
G01 X-1.2160 Y0.8230  
G01 X-1.2145 Y0.8223  
G01 X-1.2130 Y0.8216  
G01 X-1.2123 Y0.8211  
G01 X-1.2116 Y0.8207  
G01 X-1.2103 Y0.8196  
G01 X-1.2090 Y0.8186  
G01 X-1.2085 Y0.8179  
G01 X-1.2079 Y0.8174  
G01 X-1.2070 Y0.8160  
G01 X-1.0357 Y0.5951  
G01 X-1.0348 Y0.5942  
G01 X-1.0342 Y0.5931  
G01 X-1.0335 Y0.5922  
G01 X-1.0329 Y0.5910  
G01 X-1.0323 Y0.5898  
G01 X-1.0320 Y0.5887  
G01 X-1.0315 Y0.5876  
G01 X-1.0313 Y0.5863  
G01 X-1.0310 Y0.5850  
G01 X-1.0310 Y0.5838  
G01 X-1.0308 Y0.5826  
G01 X-1.0310 Y0.5813  
G01 X-1.0310 Y0.5052  
G01 X-0.9536 Y0.3732  
G01 X-0.5641 Y0.3440  
G01 X-0.5620 Y0.3439  
G01 X-0.5616 Y0.3438  
G01 X-0.5611 Y0.3438  
G01 X-0.5592 Y0.3431  
G01 X-0.5572 Y0.3425  
G01 X-0.5568 Y0.3423  
G01 X-0.5564 Y0.3421  
G01 X-0.5547 Y0.3410  
G01 X-0.5530 Y0.3399  
G01 X-0.5526 Y0.3396  
G01 X-0.5522 Y0.3393  
G01 X-0.5509 Y0.3378  
G01 X-0.3569 Y0.1340  
G01 X-0.1508 Y0.1340  
G01 X-0.0440 Y0.2499  
G01 X-0.0440 Y1.0969  
G01 X-0.2952 Y1.3385  
G01 X-0.6487 Y1.3385  
G01 X-0.6500 Y1.3383  
G01 X-0.6512 Y1.3385  
G01 X-0.6525 Y1.3385  
G01 X-0.6537 Y1.3388  
G01 X-0.6549 Y1.3390  
G01 X-0.6561 Y1.3395  
G01 X-0.6573 Y1.3398  
G01 X-0.6584 Y1.3404  
G01 X-0.6596 Y1.3409  
G01 X-0.6606 Y1.3417  
G01 X-0.6617 Y1.3423  
G01 X-0.6625 Y1.3432  
G01 X-0.6635 Y1.3439  
G01 X-0.6643 Y1.3449  
G01 X-0.6652 Y1.3458  
G01 X-0.6658 Y1.3469  
G01 X-0.7643 Y1.4749  
G01 X-0.7652 Y1.4758  
G01 X-0.7658 Y1.4769  
G01 X-0.7666 Y1.4779  
G01 X-0.7671 Y1.4791  
G01 X-0.7677 Y1.4802  
G01 X-0.7679 Y1.4810  
G01 X-0.7683 Y1.4810  
G01 X-0.7683 Y1.4711  
G01 X-0.7695 Y1.4650  
G01 X-0.7719 Y1.4592  
G01 X-0.7753 Y1.4540  
G01 X-0.7798 Y1.4496  
G01 X-0.7850 Y1.4461  
G01 X-0.7907 Y1.4437  
G01 X-0.7969 Y1.4425  
G01 X-0.8031 Y1.4425  
G01 X-0.8093 Y1.4437  
G01 X-0.8150 Y1.4461  
G01 X-0.8202 Y1.4496  
G01 X-0.8247 Y1.4540  
G01 X-0.8281 Y1.4592  
G01 X-0.8305 Y1.4650  
G01 X-0.8317 Y1.4711  
G01 X-0.8317 Y1.5289  
G01 X-0.8305 Y1.5350  
G01 X-0.8281 Y1.5408  
G01 X-0.8247 Y1.5460  
G01 X-0.8202 Y1.5504  
G01 X-0.8150 Y1.5539  
G01 X-0.8093 Y1.5563  
G01 X-0.8031 Y1.5575  
G01 X-0.7969 Y1.5575  
G01 X-0.7907 Y1.5563  
G01 X-0.7850 Y1.5539  
G01 X-0.7798 Y1.5504  
G01 X-0.7753 Y1.5460  
G01 X-0.7719 Y1.5408  
G01 X-0.7695 Y1.5350  
G01 X-0.7683 Y1.5289  
G01 X-0.7683 Y1.5190  
G01 X-0.7608 Y1.5190  
G01 X-0.7214 Y1.5846  
G01 X-0.7202 Y1.5867  
G01 X-0.7201 Y1.5868  
G01 X-0.7200 Y1.5869  
G01 X-0.7183 Y1.5885  
G01 X-0.7167 Y1.5902  
G01 X-0.7165 Y1.5903  
G01 X-0.7164 Y1.5904  
G01 X-0.7144 Y1.5915  
G01 X-0.7123 Y1.5927  
G01 X-0.7122 Y1.5927  
G01 X-0.7120 Y1.5928  
G01 X-0.7098 Y1.5934  
G01 X-0.7075 Y1.5940  
G01 X-0.7073 Y1.5940  
G01 X-0.7072 Y1.5940  
G01 X-0.7048 Y1.5940  
G01 X-0.5452 Y1.5940  
G01 X-0.5428 Y1.5940  
G01 X-0.5427 Y1.5940  
G01 X-0.5425 Y1.5940  
G01 X-0.5402 Y1.5934  
G01 X-0.5380 Y1.5928  
G01 X-0.5378 Y1.5927  
G01 X-0.5377 Y1.5927  
G01 X-0.5356 Y1.5915  
G01 X-0.5336 Y1.5904  
G01 X-0.5335 Y1.5903  
G01 X-0.5333 Y1.5902  
G01 X-0.5317 Y1.5885  
G01 X-0.5300 Y1.5869  
G01 X-0.5299 Y1.5868  
G01 X-0.5298 Y1.5867  
G01 X-0.5286 Y1.5846  
G01 X-0.5036 Y1.5430  
G01 X-0.5034 Y1.5430  
G01 X-0.4966 Y1.5430  
G01 X-0.4899 Y1.5419  
G01 X-0.4835 Y1.5398  
G01 X-0.4775 Y1.5368  
G01 X-0.4720 Y1.5328  
G01 X-0.4672 Y1.5280  
G01 X-0.4632 Y1.5225  
G01 X-0.4602 Y1.5165  
G01 X-0.4581 Y1.5101  
G01 X-0.4570 Y1.5034  
G01 X-0.4570 Y1.4966  
G01 X-0.4581 Y1.4899  
G01 X-0.4602 Y1.4835  
G01 X-0.4632 Y1.4775  
G01 X-0.4672 Y1.4720  
G01 X-0.4720 Y1.4672  
G01 X-0.4775 Y1.4632  
G01 X-0.4835 Y1.4602  
G01 X-0.4899 Y1.4581  
G01 X-0.4966 Y1.4570  
G01 X-0.5034 Y1.4570  
G01 X-0.5101 Y1.4581  
G01 X-0.5165 Y1.4602  
G01 X-0.5225 Y1.4632  
G01 X-0.5280 Y1.4672  
G01 X-0.5328 Y1.4720  
G01 X-0.5368 Y1.4775  
G01 X-0.5398 Y1.4835  
G01 X-0.5419 Y1.4899  
G01 X-0.5430 Y1.4966  
G01 X-0.5430 Y1.5034  
G01 X-0.5419 Y1.5101  
G01 X-0.5398 Y1.5165  
G01 X-0.5368 Y1.5225  
G01 X-0.5362 Y1.5234  
G01 X-0.5558 Y1.5560  
G01 X-0.6942 Y1.5560  
G01 X-0.7310 Y1.4947  
G01 X-0.7310 Y1.4940  
G01 X-0.6406 Y1.3765  
G01 X-0.2877 Y1.3765  
G01 X-0.2854 Y1.3765  
G01 X-0.2852 Y1.3765  
G01 X-0.2850 Y1.3765  
G01 X-0.2828 Y1.3759  
G01 X-0.2805 Y1.3753  
G01 X-0.2803 Y1.3753  
G01 X-0.2802 Y1.3752  
G01 X-0.2782 Y1.3740  
G01 X-0.2761 Y1.3729  
G01 X-0.2760 Y1.3728  
G01 X-0.2758 Y1.3727  
G01 X-0.2742 Y1.3711  
G01 X-0.0135 Y1.1203  
G01 X-0.0133 Y1.1202  
G01 X-0.0117 Y1.1186  
G01 X-0.0100 Y1.1170  
G01 X-0.0099 Y1.1168  
G01 X-0.0098 Y1.1167  
G01 X-0.0086 Y1.1147  
G01 X-0.0074 Y1.1127  
G01 X-0.0074 Y1.1125  
G01 X-0.0073 Y1.1123  
G01 X-0.0067 Y1.1101  
G01 X-0.0061 Y1.1079  
G01 X-0.0060 Y1.1077  
G01 X-0.0060 Y1.1075  
G01 X-0.0060 Y1.1052  
G01 X-0.0060 Y1.1029  
G01 X-0.0060 Y1.1027  
G01 X-0.0060 Y0.2429  
G01 X-0.0059 Y0.2408  
G01 X-0.0060 Y0.2404  
G01 X-0.0060 Y0.2400  
G01 X-0.0065 Y0.2380  
G01 X-0.0070 Y0.2359  
G01 X-0.0072 Y0.2355  
G01 X-0.0073 Y0.2352  
G01 X-0.0084 Y0.2333  
G01 X-0.0093 Y0.2315  
G01 X-0.0096 Y0.2312  
G01 X-0.0098 Y0.2308  
G01 X-0.0113 Y0.2293  
G01 X-0.1271 Y0.1037  
G01 X-0.1273 Y0.1033  
G01 X-0.1288 Y0.1018  
G01 X-0.1302 Y0.1003  
G00 Z0.0500  
G00 X-0.1526 Y0.1604  
G01 Z-0.0040 F10    
G01 X-0.1530 Y0.1602  F20    
G01 X-0.1533 Y0.1598  
G01 X-0.1551 Y0.1588  
G01 X-0.1567 Y0.1577  
G01 X-0.1572 Y0.1575  
G01 X-0.1577 Y0.1573  
G01 X-0.1596 Y0.1568  
G01 X-0.1615 Y0.1562  
G01 X-0.1620 Y0.1561  
G01 X-0.1625 Y0.1560  
G01 X-0.1645 Y0.1560  
G01 X-0.1665 Y0.1559  
G01 X-0.1670 Y0.1560  
G01 X-0.2350 Y0.1560  
G01 X-0.2398 Y0.1573  
G01 X-0.2442 Y0.1598  
G01 X-0.4654 Y0.3810  
G01 X-0.5614 Y0.3810  
G01 X-0.5632 Y0.3775  
G01 X-0.5672 Y0.3720  
G01 X-0.5720 Y0.3672  
G01 X-0.5775 Y0.3632  
G01 X-0.5835 Y0.3602  
G01 X-0.5899 Y0.3581  
G01 X-0.5966 Y0.3570  
G01 X-0.6034 Y0.3570  
G01 X-0.6101 Y0.3581  
G01 X-0.6165 Y0.3602  
G01 X-0.6225 Y0.3632  
G01 X-0.6280 Y0.3672  
G01 X-0.6328 Y0.3720  
G01 X-0.6368 Y0.3775  
G01 X-0.6398 Y0.3835  
G01 X-0.6419 Y0.3899  
G01 X-0.6430 Y0.3966  
G01 X-0.6430 Y0.4034  
G01 X-0.6430 Y0.4036  
G01 X-0.7204 Y0.4810  
G01 X-0.9114 Y0.4810  
G01 X-0.9132 Y0.4775  
G01 X-0.9172 Y0.4720  
G01 X-0.9220 Y0.4672  
G01 X-0.9275 Y0.4632  
G01 X-0.9335 Y0.4602  
G01 X-0.9399 Y0.4581  
G01 X-0.9466 Y0.4570  
G01 X-0.9534 Y0.4570  
G01 X-0.9601 Y0.4581  
G01 X-0.9665 Y0.4602  
G01 X-0.9725 Y0.4632  
G01 X-0.9780 Y0.4672  
G01 X-0.9828 Y0.4720  
G01 X-0.9868 Y0.4775  
G01 X-0.9898 Y0.4835  
G01 X-0.9919 Y0.4899  
G01 X-0.9930 Y0.4966  
G01 X-0.9930 Y0.5034  
G01 X-0.9919 Y0.5101  
G01 X-0.9898 Y0.5165  
G01 X-0.9868 Y0.5225  
G01 X-0.9828 Y0.5280  
G01 X-0.9780 Y0.5328  
G01 X-0.9725 Y0.5368  
G01 X-0.9690 Y0.5386  
G01 X-0.9690 Y0.5494  
G01 X-1.0573 Y0.6855  
G01 X-1.0577 Y0.6858  
G01 X-1.0587 Y0.6876  
G01 X-1.0598 Y0.6893  
G01 X-1.0600 Y0.6897  
G01 X-1.0602 Y0.6902  
G01 X-1.0607 Y0.6921  
G01 X-1.0613 Y0.6940  
G01 X-1.0614 Y0.6945  
G01 X-1.0615 Y0.6950  
G01 X-1.0615 Y0.6970  
G01 X-1.0616 Y0.6990  
G01 X-1.0615 Y0.6995  
G01 X-1.0615 Y0.7593  
G01 X-1.0639 Y0.7609  
G01 X-1.0691 Y0.7661  
G01 X-1.0732 Y0.7722  
G01 X-1.0761 Y0.7791  
G01 X-1.0775 Y0.7863  
G01 X-1.0775 Y0.7937  
G01 X-1.0761 Y0.8009  
G01 X-1.0732 Y0.8078  
G01 X-1.0691 Y0.8139  
G01 X-1.0639 Y0.8191  
G01 X-1.0578 Y0.8232  
G01 X-1.0509 Y0.8261  
G01 X-1.0437 Y0.8275  
G01 X-1.0363 Y0.8275  
G01 X-1.0291 Y0.8261  
G01 X-1.0222 Y0.8232  
G01 X-1.0161 Y0.8191  
G01 X-1.0109 Y0.8139  
G01 X-1.0068 Y0.8078  
G01 X-1.0039 Y0.8009  
G01 X-1.0025 Y0.7937  
G01 X-1.0025 Y0.7863  
G01 X-1.0039 Y0.7791  
G01 X-1.0068 Y0.7722  
G01 X-1.0109 Y0.7661  
G01 X-1.0161 Y0.7609  
G01 X-1.0222 Y0.7568  
G01 X-1.0235 Y0.7562  
G01 X-1.0235 Y0.7031  
G01 X-0.9352 Y0.5670  
G01 X-0.9348 Y0.5667  
G01 X-0.9338 Y0.5649  
G01 X-0.9327 Y0.5632  
G01 X-0.9325 Y0.5628  
G01 X-0.9323 Y0.5623  
G01 X-0.9318 Y0.5604  
G01 X-0.9312 Y0.5585  
G01 X-0.9311 Y0.5580  
G01 X-0.9310 Y0.5575  
G01 X-0.9310 Y0.5555  
G01 X-0.9309 Y0.5535  
G01 X-0.9310 Y0.5530  
G01 X-0.9310 Y0.5386  
G01 X-0.9275 Y0.5368  
G01 X-0.9220 Y0.5328  
G01 X-0.9172 Y0.5280  
G01 X-0.9132 Y0.5225  
G01 X-0.9114 Y0.5190  
G01 X-0.7100 Y0.5190  
G01 X-0.7052 Y0.5177  
G01 X-0.7008 Y0.5152  
G01 X-0.6225 Y0.4368  
G01 X-0.6165 Y0.4398  
G01 X-0.6101 Y0.4419  
G01 X-0.6034 Y0.4430  
G01 X-0.5966 Y0.4430  
G01 X-0.5899 Y0.4419  
G01 X-0.5835 Y0.4398  
G01 X-0.5775 Y0.4368  
G01 X-0.5720 Y0.4328  
G01 X-0.5672 Y0.4280  
G01 X-0.5632 Y0.4225  
G01 X-0.5614 Y0.4190  
G01 X-0.4550 Y0.4190  
G01 X-0.4502 Y0.4177  
G01 X-0.4458 Y0.4152  
G01 X-0.4423 Y0.4117  
G01 X-0.2246 Y0.1940  
G01 X-0.1735 Y0.1940  
G01 X-0.0940 Y0.2823  
G01 X-0.0940 Y0.7396  
G01 X-0.2502 Y0.8958  
G01 X-0.2527 Y0.9002  
G01 X-0.2540 Y0.9050  
G01 X-0.2540 Y1.0771  
G01 X-0.4454 Y1.2685  
G01 X-1.0271 Y1.2685  
G01 X-1.0583 Y1.2373  
G01 X-1.0662 Y1.2274  
G01 X-1.0683 Y1.2231  
G01 X-1.0683 Y1.1711  
G01 X-1.0695 Y1.1650  
G01 X-1.0719 Y1.1592  
G01 X-1.0753 Y1.1540  
G01 X-1.0798 Y1.1496  
G01 X-1.0850 Y1.1461  
G01 X-1.0907 Y1.1437  
G01 X-1.0969 Y1.1425  
G01 X-1.1031 Y1.1425  
G01 X-1.1093 Y1.1437  
G01 X-1.1150 Y1.1461  
G01 X-1.1202 Y1.1496  
G01 X-1.1247 Y1.1540  
G01 X-1.1281 Y1.1592  
G01 X-1.1305 Y1.1650  
G01 X-1.1317 Y1.1711  
G01 X-1.1317 Y1.2289  
G01 X-1.1305 Y1.2350  
G01 X-1.1281 Y1.2408  
G01 X-1.1247 Y1.2460  
G01 X-1.1202 Y1.2504  
G01 X-1.1150 Y1.2539  
G01 X-1.1093 Y1.2563  
G01 X-1.1031 Y1.2575  
G01 X-1.0969 Y1.2575  
G01 X-1.0917 Y1.2565  
G01 X-1.0882 Y1.2607  
G01 X-1.0877 Y1.2617  
G01 X-1.0867 Y1.2627  
G01 X-1.0858 Y1.2638  
G01 X-1.0849 Y1.2645  
G01 X-1.0502 Y1.2992  
G01 X-1.0467 Y1.3027  
G01 X-1.0423 Y1.3052  
G01 X-1.0375 Y1.3065  
G01 X-0.4350 Y1.3065  
G01 X-0.4302 Y1.3052  
G01 X-0.4258 Y1.3027  
G01 X-0.2233 Y1.1002  
G01 X-0.2198 Y1.0967  
G01 X-0.2173 Y1.0923  
G01 X-0.2160 Y1.0875  
G01 X-0.2160 Y0.9154  
G01 X-0.0633 Y0.7627  
G01 X-0.0598 Y0.7592  
G01 X-0.0573 Y0.7548  
G01 X-0.0560 Y0.7500  
G01 X-0.0560 Y0.2755  
G01 X-0.0559 Y0.2735  
G01 X-0.0560 Y0.2730  
G01 X-0.0560 Y0.2725  
G01 X-0.0565 Y0.2706  
G01 X-0.0569 Y0.2686  
G01 X-0.0572 Y0.2682  
G01 X-0.0573 Y0.2677  
G01 X-0.0583 Y0.2659  
G01 X-0.0592 Y0.2641  
G01 X-0.0595 Y0.2638  
G01 X-0.0598 Y0.2633  
G01 X-0.0612 Y0.2619  
G01 X-0.1495 Y0.1638  
G01 X-0.1498 Y0.1633  
G01 X-0.1512 Y0.1619  
G01 X-0.1526 Y0.1604  
G00 Z0.0500  
G00 X-0.1672 Y0.2220  
G01 Z-0.0040 F10    
G01 X-0.1720 Y0.2172  F20    
G01 X-0.1775 Y0.2132  
G01 X-0.1835 Y0.2102  
G01 X-0.1899 Y0.2081  
G01 X-0.1966 Y0.2070  
G01 X-0.2034 Y0.2070  
G01 X-0.2101 Y0.2081  
G01 X-0.2165 Y0.2102  
G01 X-0.2225 Y0.2132  
G01 X-0.2280 Y0.2172  
G01 X-0.2328 Y0.2220  
G01 X-0.2368 Y0.2275  
G01 X-0.2398 Y0.2335  
G01 X-0.2419 Y0.2399  
G01 X-0.2430 Y0.2466  
G01 X-0.2430 Y0.2534  
G01 X-0.2419 Y0.2601  
G01 X-0.2398 Y0.2665  
G01 X-0.2368 Y0.2725  
G01 X-0.2328 Y0.2780  
G01 X-0.2280 Y0.2828  
G01 X-0.2225 Y0.2868  
G01 X-0.2190 Y0.2886  
G01 X-0.2190 Y0.3025  
G01 X-0.2177 Y0.3073  
G01 X-0.2152 Y0.3117  
G01 X-0.1440 Y0.3829  
G01 X-0.1440 Y0.5791  
G01 X-0.1593 Y0.5638  
G01 X-0.1581 Y0.5601  
G01 X-0.1570 Y0.5534  
G01 X-0.1570 Y0.5466  
G01 X-0.1581 Y0.5399  
G01 X-0.1602 Y0.5335  
G01 X-0.1632 Y0.5275  
G01 X-0.1672 Y0.5220  
G01 X-0.1720 Y0.5172  
G01 X-0.1775 Y0.5132  
G01 X-0.1835 Y0.5102  
G01 X-0.1899 Y0.5081  
G01 X-0.1966 Y0.5070  
G01 X-0.2034 Y0.5070  
G01 X-0.2101 Y0.5081  
G01 X-0.2165 Y0.5102  
G01 X-0.2225 Y0.5132  
G01 X-0.2280 Y0.5172  
G01 X-0.2328 Y0.5220  
G01 X-0.2368 Y0.5275  
G01 X-0.2398 Y0.5335  
G01 X-0.2419 Y0.5399  
G01 X-0.2430 Y0.5466  
G01 X-0.2430 Y0.5534  
G01 X-0.2419 Y0.5601  
G01 X-0.2398 Y0.5665  
G01 X-0.2368 Y0.5725  
G01 X-0.2328 Y0.5780  
G01 X-0.2280 Y0.5828  
G01 X-0.2225 Y0.5868  
G01 X-0.2165 Y0.5898  
G01 X-0.2101 Y0.5919  
G01 X-0.2034 Y0.5930  
G01 X-0.1966 Y0.5930  
G01 X-0.1899 Y0.5919  
G01 X-0.1862 Y0.5907  
G01 X-0.1440 Y0.6329  
G01 X-0.1440 Y0.7171  
G01 X-0.3489 Y0.9220  
G01 X-0.3528 Y0.9220  
G01 X-0.3582 Y0.9231  
G01 X-0.3633 Y0.9252  
G01 X-0.3678 Y0.9283  
G01 X-0.3717 Y0.9322  
G01 X-0.3748 Y0.9367  
G01 X-0.3769 Y0.9418  
G01 X-0.3780 Y0.9472  
G01 X-0.3780 Y0.9528  
G01 X-0.3769 Y0.9582  
G01 X-0.3748 Y0.9633  
G01 X-0.3717 Y0.9678  
G01 X-0.3678 Y0.9717  
G01 X-0.3633 Y0.9748  
G01 X-0.3582 Y0.9769  
G01 X-0.3528 Y0.9780  
G01 X-0.3472 Y0.9780  
G01 X-0.3418 Y0.9769  
G01 X-0.3367 Y0.9748  
G01 X-0.3322 Y0.9717  
G01 X-0.3283 Y0.9678  
G01 X-0.3252 Y0.9633  
G01 X-0.3231 Y0.9582  
G01 X-0.3220 Y0.9528  
G01 X-0.3220 Y0.9489  
G01 X-0.1133 Y0.7402  
G01 X-0.1098 Y0.7367  
G01 X-0.1073 Y0.7323  
G01 X-0.1060 Y0.7275  
G01 X-0.1060 Y0.3725  
G01 X-0.1073 Y0.3677  
G01 X-0.1098 Y0.3633  
G01 X-0.1133 Y0.3598  
G01 X-0.1810 Y0.2921  
G01 X-0.1810 Y0.2886  
G01 X-0.1775 Y0.2868  
G01 X-0.1720 Y0.2828  
G01 X-0.1672 Y0.2780  
G01 X-0.1632 Y0.2725  
G01 X-0.1602 Y0.2665  
G01 X-0.1581 Y0.2601  
G01 X-0.1570 Y0.2534  
G01 X-0.1570 Y0.2466  
G01 X-0.1581 Y0.2399  
G01 X-0.1602 Y0.2335  
G01 X-0.1632 Y0.2275  
G01 X-0.1672 Y0.2220  
G00 Z0.0500  
G00 X-0.1672 Y0.3720  
G01 Z-0.0040 F10    
G01 X-0.1720 Y0.3672  F20    
G01 X-0.1775 Y0.3632  
G01 X-0.1835 Y0.3602  
G01 X-0.1899 Y0.3581  
G01 X-0.1966 Y0.3570  
G01 X-0.2034 Y0.3570  
G01 X-0.2101 Y0.3581  
G01 X-0.2165 Y0.3602  
G01 X-0.2225 Y0.3632  
G01 X-0.2280 Y0.3672  
G01 X-0.2328 Y0.3720  
G01 X-0.2368 Y0.3775  
G01 X-0.2398 Y0.3835  
G01 X-0.2419 Y0.3899  
G01 X-0.2430 Y0.3966  
G01 X-0.2430 Y0.4034  
G01 X-0.2419 Y0.4101  
G01 X-0.2407 Y0.4138  
G01 X-0.7750 Y0.9481  
G01 X-0.7935 Y0.9296  
G01 X-0.7935 Y0.7754  
G01 X-0.7459 Y0.7277  
G01 X-0.7418 Y0.7269  
G01 X-0.7367 Y0.7248  
G01 X-0.7322 Y0.7217  
G01 X-0.7283 Y0.7178  
G01 X-0.7252 Y0.7133  
G01 X-0.7231 Y0.7082  
G01 X-0.7220 Y0.7028  
G01 X-0.7220 Y0.6972  
G01 X-0.7231 Y0.6918  
G01 X-0.7252 Y0.6867  
G01 X-0.7283 Y0.6822  
G01 X-0.7322 Y0.6783  
G01 X-0.7367 Y0.6752  
G01 X-0.7418 Y0.6731  
G01 X-0.7472 Y0.6720  
G01 X-0.7528 Y0.6720  
G01 X-0.7582 Y0.6731  
G01 X-0.7633 Y0.6752  
G01 X-0.7678 Y0.6783  
G01 X-0.7717 Y0.6822  
G01 X-0.7748 Y0.6867  
G01 X-0.7769 Y0.6918  
G01 X-0.7780 Y0.6972  
G01 X-0.7780 Y0.7028  
G01 X-0.7774 Y0.7056  
G01 X-0.8242 Y0.7523  
G01 X-0.8277 Y0.7558  
G01 X-0.8302 Y0.7602  
G01 X-0.8315 Y0.7650  
G01 X-0.8315 Y0.9400  
G01 X-0.8302 Y0.9448  
G01 X-0.8277 Y0.9492  
G01 X-0.7902 Y0.9867  
G01 X-0.7867 Y0.9902  
G01 X-0.7440 Y1.0329  
G01 X-0.7440 Y1.1171  
G01 X-0.7781 Y1.1512  
G01 X-0.7798 Y1.1496  
G01 X-0.7850 Y1.1461  
G01 X-0.7907 Y1.1437  
G01 X-0.7969 Y1.1425  
G01 X-0.8031 Y1.1425  
G01 X-0.8093 Y1.1437  
G01 X-0.8150 Y1.1461  
G01 X-0.8202 Y1.1496  
G01 X-0.8247 Y1.1540  
G01 X-0.8281 Y1.1592  
G01 X-0.8305 Y1.1650  
G01 X-0.8317 Y1.1711  
G01 X-0.8317 Y1.2289  
G01 X-0.8305 Y1.2350  
G01 X-0.8281 Y1.2408  
G01 X-0.8247 Y1.2460  
G01 X-0.8202 Y1.2504  
G01 X-0.8150 Y1.2539  
G01 X-0.8093 Y1.2563  
G01 X-0.8031 Y1.2575  
G01 X-0.7969 Y1.2575  
G01 X-0.7907 Y1.2563  
G01 X-0.7850 Y1.2539  
G01 X-0.7798 Y1.2504  
G01 X-0.7753 Y1.2460  
G01 X-0.7719 Y1.2408  
G01 X-0.7695 Y1.2350  
G01 X-0.7683 Y1.2289  
G01 X-0.7683 Y1.1951  
G01 X-0.7098 Y1.1367  
G01 X-0.7073 Y1.1323  
G01 X-0.7060 Y1.1275  
G01 X-0.7060 Y1.0225  
G01 X-0.7073 Y1.0177  
G01 X-0.7098 Y1.0133  
G01 X-0.7133 Y1.0098  
G01 X-0.7481 Y0.9750  
G01 X-0.2138 Y0.4407  
G01 X-0.2101 Y0.4419  
G01 X-0.2034 Y0.4430  
G01 X-0.1966 Y0.4430  
G01 X-0.1899 Y0.4419  
G01 X-0.1835 Y0.4398  
G01 X-0.1775 Y0.4368  
G01 X-0.1720 Y0.4328  
G01 X-0.1672 Y0.4280  
G01 X-0.1632 Y0.4225  
G01 X-0.1602 Y0.4165  
G01 X-0.1581 Y0.4101  
G01 X-0.1570 Y0.4034  
G01 X-0.1570 Y0.3966  
G01 X-0.1581 Y0.3899  
G01 X-0.1602 Y0.3835  
G01 X-0.1632 Y0.3775  
G01 X-0.1672 Y0.3720  
G00 Z0.0500  
G00 X-0.1672 Y0.6720  
G01 Z-0.0040 F10    
G01 X-0.1720 Y0.6672  F20    
G01 X-0.1775 Y0.6632  
G01 X-0.1835 Y0.6602  
G01 X-0.1899 Y0.6581  
G01 X-0.1966 Y0.6570  
G01 X-0.2034 Y0.6570  
G01 X-0.2101 Y0.6581  
G01 X-0.2165 Y0.6602  
G01 X-0.2225 Y0.6632  
G01 X-0.2280 Y0.6672  
G01 X-0.2328 Y0.6720  
G01 X-0.2368 Y0.6775  
G01 X-0.2386 Y0.6810  
G01 X-0.2900 Y0.6810  
G01 X-0.2948 Y0.6823  
G01 X-0.2992 Y0.6848  
G01 X-0.5387 Y0.9244  
G01 X-0.5418 Y0.9231  
G01 X-0.5472 Y0.9220  
G01 X-0.5528 Y0.9220  
G01 X-0.5582 Y0.9231  
G01 X-0.5633 Y0.9252  
G01 X-0.5678 Y0.9283  
G01 X-0.5717 Y0.9322  
G01 X-0.5748 Y0.9367  
G01 X-0.5769 Y0.9418  
G01 X-0.5780 Y0.9472  
G01 X-0.5780 Y0.9528  
G01 X-0.5769 Y0.9582  
G01 X-0.5748 Y0.9633  
G01 X-0.5717 Y0.9678  
G01 X-0.5690 Y0.9706  
G01 X-0.5690 Y1.0525  
G01 X-0.5677 Y1.0573  
G01 X-0.5652 Y1.0617  
G01 X-0.5617 Y1.0652  
G01 X-0.5407 Y1.0862  
G01 X-0.5419 Y1.0899  
G01 X-0.5430 Y1.0966  
G01 X-0.5430 Y1.1034  
G01 X-0.5419 Y1.1101  
G01 X-0.5398 Y1.1165  
G01 X-0.5368 Y1.1225  
G01 X-0.5328 Y1.1280  
G01 X-0.5280 Y1.1328  
G01 X-0.5225 Y1.1368  
G01 X-0.5165 Y1.1398  
G01 X-0.5101 Y1.1419  
G01 X-0.5034 Y1.1430  
G01 X-0.4966 Y1.1430  
G01 X-0.4899 Y1.1419  
G01 X-0.4835 Y1.1398  
G01 X-0.4775 Y1.1368  
G01 X-0.4720 Y1.1328  
G01 X-0.4672 Y1.1280  
G01 X-0.4632 Y1.1225  
G01 X-0.4602 Y1.1165  
G01 X-0.4581 Y1.1101  
G01 X-0.4570 Y1.1034  
G01 X-0.4570 Y1.0966  
G01 X-0.4581 Y1.0899  
G01 X-0.4602 Y1.0835  
G01 X-0.4632 Y1.0775  
G01 X-0.4672 Y1.0720  
G01 X-0.4720 Y1.0672  
G01 X-0.4775 Y1.0632  
G01 X-0.4835 Y1.0602  
G01 X-0.4899 Y1.0581  
G01 X-0.4966 Y1.0570  
G01 X-0.5034 Y1.0570  
G01 X-0.5101 Y1.0581  
G01 X-0.5138 Y1.0593  
G01 X-0.5310 Y1.0421  
G01 X-0.5310 Y0.9706  
G01 X-0.5283 Y0.9678  
G01 X-0.5269 Y0.9658  
G01 X-0.5258 Y0.9652  
G01 X-0.5223 Y0.9617  
G01 X-0.2796 Y0.7190  
G01 X-0.2386 Y0.7190  
G01 X-0.2368 Y0.7225  
G01 X-0.2328 Y0.7280  
G01 X-0.2280 Y0.7328  
G01 X-0.2225 Y0.7368  
G01 X-0.2165 Y0.7398  
G01 X-0.2101 Y0.7419  
G01 X-0.2034 Y0.7430  
G01 X-0.1966 Y0.7430  
G01 X-0.1899 Y0.7419  
G01 X-0.1835 Y0.7398  
G01 X-0.1775 Y0.7368  
G01 X-0.1720 Y0.7328  
G01 X-0.1672 Y0.7280  
G01 X-0.1632 Y0.7225  
G01 X-0.1602 Y0.7165  
G01 X-0.1581 Y0.7101  
G01 X-0.1570 Y0.7034  
G01 X-0.1570 Y0.6966  
G01 X-0.1581 Y0.6899  
G01 X-0.1602 Y0.6835  
G01 X-0.1632 Y0.6775  
G01 X-0.1672 Y0.6720  
G00 Z0.0500  
G00 X-0.1701 Y0.9015  
G01 Z-0.0040 F10    
G01 X-0.1985 Y0.9299  F20    
G01 X-0.1985 Y0.9701  
G01 X-0.1701 Y0.9985  
G01 X-0.1690 Y0.9985  
G01 X-0.1690 Y1.0614  
G01 X-0.1725 Y1.0632  
G01 X-0.1780 Y1.0672  
G01 X-0.1828 Y1.0720  
G01 X-0.1868 Y1.0775  
G01 X-0.1898 Y1.0835  
G01 X-0.1919 Y1.0899  
G01 X-0.1930 Y1.0966  
G01 X-0.1930 Y1.1034  
G01 X-0.1919 Y1.1101  
G01 X-0.1898 Y1.1165  
G01 X-0.1868 Y1.1225  
G01 X-0.1828 Y1.1280  
G01 X-0.1780 Y1.1328  
G01 X-0.1725 Y1.1368  
G01 X-0.1665 Y1.1398  
G01 X-0.1601 Y1.1419  
G01 X-0.1534 Y1.1430  
G01 X-0.1466 Y1.1430  
G01 X-0.1399 Y1.1419  
G01 X-0.1335 Y1.1398  
G01 X-0.1275 Y1.1368  
G01 X-0.1220 Y1.1328  
G01 X-0.1172 Y1.1280  
G01 X-0.1132 Y1.1225  
G01 X-0.1102 Y1.1165  
G01 X-0.1081 Y1.1101  
G01 X-0.1070 Y1.1034  
G01 X-0.1070 Y1.0966  
G01 X-0.1081 Y1.0899  
G01 X-0.1102 Y1.0835  
G01 X-0.1132 Y1.0775  
G01 X-0.1172 Y1.0720  
G01 X-0.1220 Y1.0672  
G01 X-0.1275 Y1.0632  
G01 X-0.1310 Y1.0614  
G01 X-0.1310 Y0.9985  
G01 X-0.1299 Y0.9985  
G01 X-0.1015 Y0.9701  
G01 X-0.1015 Y0.9299  
G01 X-0.1299 Y0.9015  
G01 X-0.1701 Y0.9015  
G00 Z0.0500  
G00 X-0.4283 Y0.9322  
G01 Z-0.0040 F10    
G01 X-0.4322 Y0.9283  F20    
G01 X-0.4367 Y0.9252  
G01 X-0.4418 Y0.9231  
G01 X-0.4472 Y0.9220  
G01 X-0.4528 Y0.9220  
G01 X-0.4582 Y0.9231  
G01 X-0.4633 Y0.9252  
G01 X-0.4678 Y0.9283  
G01 X-0.4717 Y0.9322  
G01 X-0.4748 Y0.9367  
G01 X-0.4769 Y0.9418  
G01 X-0.4780 Y0.9472  
G01 X-0.4780 Y0.9528  
G01 X-0.4769 Y0.9582  
G01 X-0.4748 Y0.9633  
G01 X-0.4717 Y0.9678  
G01 X-0.4690 Y0.9706  
G01 X-0.4690 Y1.0025  
G01 X-0.4677 Y1.0073  
G01 X-0.4652 Y1.0117  
G01 X-0.3956 Y1.0812  
G01 X-0.4704 Y1.1560  
G01 X-0.5171 Y1.1560  
G01 X-0.5883 Y1.0848  
G01 X-0.5927 Y1.0823  
G01 X-0.5975 Y1.0810  
G01 X-0.6114 Y1.0810  
G01 X-0.6132 Y1.0775  
G01 X-0.6172 Y1.0720  
G01 X-0.6220 Y1.0672  
G01 X-0.6275 Y1.0632  
G01 X-0.6335 Y1.0602  
G01 X-0.6399 Y1.0581  
G01 X-0.6466 Y1.0570  
G01 X-0.6534 Y1.0570  
G01 X-0.6601 Y1.0581  
G01 X-0.6665 Y1.0602  
G01 X-0.6725 Y1.0632  
G01 X-0.6780 Y1.0672  
G01 X-0.6828 Y1.0720  
G01 X-0.6868 Y1.0775  
G01 X-0.6898 Y1.0835  
G01 X-0.6919 Y1.0899  
G01 X-0.6930 Y1.0966  
G01 X-0.6930 Y1.1034  
G01 X-0.6919 Y1.1101  
G01 X-0.6898 Y1.1165  
G01 X-0.6868 Y1.1225  
G01 X-0.6828 Y1.1280  
G01 X-0.6780 Y1.1328  
G01 X-0.6725 Y1.1368  
G01 X-0.6665 Y1.1398  
G01 X-0.6601 Y1.1419  
G01 X-0.6534 Y1.1430  
G01 X-0.6466 Y1.1430  
G01 X-0.6399 Y1.1419  
G01 X-0.6335 Y1.1398  
G01 X-0.6275 Y1.1368  
G01 X-0.6220 Y1.1328  
G01 X-0.6172 Y1.1280  
G01 X-0.6132 Y1.1225  
G01 X-0.6114 Y1.1190  
G01 X-0.6079 Y1.1190  
G01 X-0.5402 Y1.1867  
G01 X-0.5367 Y1.1902  
G01 X-0.5323 Y1.1927  
G01 X-0.5275 Y1.1940  
G01 X-0.4600 Y1.1940  
G01 X-0.4552 Y1.1927  
G01 X-0.4508 Y1.1902  
G01 X-0.3853 Y1.1246  
G01 X-0.3828 Y1.1280  
G01 X-0.3780 Y1.1328  
G01 X-0.3725 Y1.1368  
G01 X-0.3665 Y1.1398  
G01 X-0.3601 Y1.1419  
G01 X-0.3534 Y1.1430  
G01 X-0.3466 Y1.1430  
G01 X-0.3399 Y1.1419  
G01 X-0.3335 Y1.1398  
G01 X-0.3275 Y1.1368  
G01 X-0.3220 Y1.1328  
G01 X-0.3172 Y1.1280  
G01 X-0.3132 Y1.1225  
G01 X-0.3102 Y1.1165  
G01 X-0.3081 Y1.1101  
G01 X-0.3070 Y1.1034  
G01 X-0.3070 Y1.0966  
G01 X-0.3081 Y1.0899  
G01 X-0.3102 Y1.0835  
G01 X-0.3132 Y1.0775  
G01 X-0.3172 Y1.0720  
G01 X-0.3220 Y1.0672  
G01 X-0.3275 Y1.0632  
G01 X-0.3335 Y1.0602  
G01 X-0.3399 Y1.0581  
G01 X-0.3466 Y1.0570  
G01 X-0.3534 Y1.0570  
G01 X-0.3601 Y1.0581  
G01 X-0.3638 Y1.0593  
G01 X-0.4310 Y0.9921  
G01 X-0.4310 Y0.9706  
G01 X-0.4283 Y0.9678  
G01 X-0.4252 Y0.9633  
G01 X-0.4231 Y0.9582  
G01 X-0.4220 Y0.9528  
G01 X-0.4220 Y0.9472  
G01 X-0.4231 Y0.9418  
G01 X-0.4252 Y0.9367  
G01 X-0.4283 Y0.9322  
G00 Z0.0500  
G00 X-0.5720 Y0.7328  
G01 Z-0.0040 F10    
G01 X-0.5672 Y0.7280  F20    
G01 X-0.5632 Y0.7225  
G01 X-0.5602 Y0.7165  
G01 X-0.5581 Y0.7101  
G01 X-0.5570 Y0.7034  
G01 X-0.5570 Y0.6966  
G01 X-0.5581 Y0.6899  
G01 X-0.5602 Y0.6835  
G01 X-0.5632 Y0.6775  
G01 X-0.5672 Y0.6720  
G01 X-0.5720 Y0.6672  
G01 X-0.5775 Y0.6632  
G01 X-0.5835 Y0.6602  
G01 X-0.5899 Y0.6581  
G01 X-0.5966 Y0.6570  
G01 X-0.6034 Y0.6570  
G01 X-0.6101 Y0.6581  
G01 X-0.6165 Y0.6602  
G01 X-0.6225 Y0.6632  
G01 X-0.6280 Y0.6672  
G01 X-0.6328 Y0.6720  
G01 X-0.6368 Y0.6775  
G01 X-0.6398 Y0.6835  
G01 X-0.6419 Y0.6899  
G01 X-0.6430 Y0.6966  
G01 X-0.6430 Y0.7034  
G01 X-0.6419 Y0.7101  
G01 X-0.6407 Y0.7138  
G01 X-0.7079 Y0.7810  
G01 X-0.7294 Y0.7810  
G01 X-0.7322 Y0.7783  
G01 X-0.7367 Y0.7752  
G01 X-0.7418 Y0.7731  
G01 X-0.7472 Y0.7720  
G01 X-0.7528 Y0.7720  
G01 X-0.7582 Y0.7731  
G01 X-0.7633 Y0.7752  
G01 X-0.7678 Y0.7783  
G01 X-0.7717 Y0.7822  
G01 X-0.7748 Y0.7867  
G01 X-0.7769 Y0.7918  
G01 X-0.7780 Y0.7972  
G01 X-0.7780 Y0.8028  
G01 X-0.7769 Y0.8082  
G01 X-0.7748 Y0.8133  
G01 X-0.7717 Y0.8178  
G01 X-0.7678 Y0.8217  
G01 X-0.7633 Y0.8248  
G01 X-0.7582 Y0.8269  
G01 X-0.7528 Y0.8280  
G01 X-0.7472 Y0.8280  
G01 X-0.7418 Y0.8269  
G01 X-0.7367 Y0.8248  
G01 X-0.7322 Y0.8217  
G01 X-0.7294 Y0.8190  
G01 X-0.6975 Y0.8190  
G01 X-0.6927 Y0.8177  
G01 X-0.6883 Y0.8152  
G01 X-0.6138 Y0.7407  
G01 X-0.6101 Y0.7419  
G01 X-0.6034 Y0.7430  
G01 X-0.5966 Y0.7430  
G01 X-0.5899 Y0.7419  
G01 X-0.5835 Y0.7398  
G01 X-0.5775 Y0.7368  
G01 X-0.5720 Y0.7328  
G00 Z0.0500  
G00 X-0.5720 Y0.5828  
G01 Z-0.0040 F10    
G01 X-0.5672 Y0.5780  F20    
G01 X-0.5632 Y0.5725  
G01 X-0.5602 Y0.5665  
G01 X-0.5581 Y0.5601  
G01 X-0.5570 Y0.5534  
G01 X-0.5570 Y0.5466  
G01 X-0.5581 Y0.5399  
G01 X-0.5602 Y0.5335  
G01 X-0.5632 Y0.5275  
G01 X-0.5672 Y0.5220  
G01 X-0.5720 Y0.5172  
G01 X-0.5775 Y0.5132  
G01 X-0.5835 Y0.5102  
G01 X-0.5899 Y0.5081  
G01 X-0.5966 Y0.5070  
G01 X-0.6034 Y0.5070  
G01 X-0.6101 Y0.5081  
G01 X-0.6165 Y0.5102  
G01 X-0.6225 Y0.5132  
G01 X-0.6280 Y0.5172  
G01 X-0.6328 Y0.5220  
G01 X-0.6368 Y0.5275  
G01 X-0.6398 Y0.5335  
G01 X-0.6419 Y0.5399  
G01 X-0.6430 Y0.5466  
G01 X-0.6430 Y0.5534  
G01 X-0.6419 Y0.5601  
G01 X-0.6407 Y0.5638  
G01 X-0.6579 Y0.5810  
G01 X-0.7294 Y0.5810  
G01 X-0.7322 Y0.5783  
G01 X-0.7367 Y0.5752  
G01 X-0.7418 Y0.5731  
G01 X-0.7472 Y0.5720  
G01 X-0.7528 Y0.5720  
G01 X-0.7582 Y0.5731  
G01 X-0.7633 Y0.5752  
G01 X-0.7678 Y0.5783  
G01 X-0.7717 Y0.5822  
G01 X-0.7748 Y0.5867  
G01 X-0.7769 Y0.5918  
G01 X-0.7780 Y0.5972  
G01 X-0.7780 Y0.6028  
G01 X-0.7769 Y0.6082  
G01 X-0.7748 Y0.6133  
G01 X-0.7717 Y0.6178  
G01 X-0.7678 Y0.6217  
G01 X-0.7633 Y0.6248  
G01 X-0.7582 Y0.6269  
G01 X-0.7528 Y0.6280  
G01 X-0.7472 Y0.6280  
G01 X-0.7418 Y0.6269  
G01 X-0.7367 Y0.6248  
G01 X-0.7322 Y0.6217  
G01 X-0.7294 Y0.6190  
G01 X-0.6475 Y0.6190  
G01 X-0.6427 Y0.6177  
G01 X-0.6383 Y0.6152  
G01 X-0.6138 Y0.5907  
G01 X-0.6101 Y0.5919  
G01 X-0.6034 Y0.5930  
G01 X-0.5966 Y0.5930  
G01 X-0.5899 Y0.5919  
G01 X-0.5835 Y0.5898  
G01 X-0.5775 Y0.5868  
G01 X-0.5720 Y0.5828  
G00 Z0.0500  
G00 X-0.5720 Y0.2828  
G01 Z-0.0040 F10    
G01 X-0.5672 Y0.2780  F20    
G01 X-0.5632 Y0.2725  
G01 X-0.5602 Y0.2665  
G01 X-0.5581 Y0.2601  
G01 X-0.5570 Y0.2534  
G01 X-0.5570 Y0.2466  
G01 X-0.5581 Y0.2399  
G01 X-0.5602 Y0.2335  
G01 X-0.5632 Y0.2275  
G01 X-0.5672 Y0.2220  
G01 X-0.5720 Y0.2172  
G01 X-0.5775 Y0.2132  
G01 X-0.5835 Y0.2102  
G01 X-0.5899 Y0.2081  
G01 X-0.5966 Y0.2070  
G01 X-0.6034 Y0.2070  
G01 X-0.6089 Y0.2079  
G01 X-0.7292 Y0.0543  
G01 X-0.7298 Y0.0533  
G01 X-0.7308 Y0.0524  
G01 X-0.7316 Y0.0513  
G01 X-0.7325 Y0.0506  
G01 X-0.7333 Y0.0498  
G01 X-0.7345 Y0.0491  
G01 X-0.7356 Y0.0483  
G01 X-0.7367 Y0.0479  
G01 X-0.7377 Y0.0473  
G01 X-0.7390 Y0.0469  
G01 X-0.7402 Y0.0464  
G01 X-0.7414 Y0.0463  
G01 X-0.7425 Y0.0460  
G01 X-0.7439 Y0.0460  
G01 X-0.7452 Y0.0458  
G01 X-0.7463 Y0.0460  
G01 X-1.0231 Y0.0460  
G01 X-1.0237 Y0.0459  
G01 X-1.0256 Y0.0460  
G01 X-1.0275 Y0.0460  
G01 X-1.0281 Y0.0462  
G01 X-1.0287 Y0.0462  
G01 X-1.0305 Y0.0468  
G01 X-1.0323 Y0.0473  
G01 X-1.0329 Y0.0476  
G01 X-1.0334 Y0.0478  
G01 X-1.0350 Y0.0488  
G01 X-1.0367 Y0.0498  
G01 X-1.0371 Y0.0502  
G01 X-1.0376 Y0.0506  
G01 X-1.0389 Y0.0520  
G01 X-1.0402 Y0.0533  
G01 X-1.0405 Y0.0539  
G01 X-1.0874 Y0.1070  
G01 X-1.1036 Y0.1070  
G01 X-1.2008 Y0.0098  
G01 X-1.2052 Y0.0073  
G01 X-1.2100 Y0.0060  
G01 X-1.6475 Y0.0060  
G01 X-1.6523 Y0.0073  
G01 X-1.6567 Y0.0098  
G01 X-1.6602 Y0.0133  
G01 X-2.0902 Y0.4433  
G01 X-2.0927 Y0.4477  
G01 X-2.0940 Y0.4525  
G01 X-2.0940 Y1.3315  
G01 X-2.0942 Y1.3329  
G01 X-2.0940 Y1.3340  
G01 X-2.0940 Y1.3350  
G01 X-2.0936 Y1.3364  
G01 X-2.0934 Y1.3379  
G01 X-2.0930 Y1.3388  
G01 X-2.0927 Y1.3398  
G01 X-2.0920 Y1.3411  
G01 X-2.0914 Y1.3424  
G01 X-2.0907 Y1.3433  
G01 X-2.0902 Y1.3442  
G01 X-2.0892 Y1.3452  
G01 X-2.0883 Y1.3463  
G01 X-2.0874 Y1.3470  
G01 X-2.0867 Y1.3477  
G01 X-2.0854 Y1.3484  
G01 X-2.0301 Y1.3890  
G01 X-2.0308 Y1.3907  
G01 X-2.0320 Y1.3968  
G01 X-2.0320 Y1.4032  
G01 X-2.0308 Y1.4093  
G01 X-2.0284 Y1.4152  
G01 X-2.0249 Y1.4204  
G01 X-2.0204 Y1.4249  
G01 X-2.0190 Y1.4258  
G01 X-2.0190 Y1.4525  
G01 X-2.0177 Y1.4573  
G01 X-2.0152 Y1.4617  
G01 X-1.9320 Y1.5449  
G01 X-1.9320 Y1.5633  
G01 X-1.9133 Y1.5820  
G01 X-1.8867 Y1.5820  
G01 X-1.8680 Y1.5633  
G01 X-1.8680 Y1.5367  
G01 X-1.8867 Y1.5180  
G01 X-1.9051 Y1.5180  
G01 X-1.9810 Y1.4421  
G01 X-1.9810 Y1.4258  
G01 X-1.9796 Y1.4249  
G01 X-1.9751 Y1.4204  
G01 X-1.9716 Y1.4152  
G01 X-1.9692 Y1.4093  
G01 X-1.9680 Y1.4032  
G01 X-1.9680 Y1.3968  
G01 X-1.9692 Y1.3907  
G01 X-1.9716 Y1.3848  
G01 X-1.9751 Y1.3796  
G01 X-1.9796 Y1.3751  
G01 X-1.9848 Y1.3716  
G01 X-1.9907 Y1.3692  
G01 X-1.9936 Y1.3687  
G01 X-2.0560 Y1.3229  
G01 X-2.0560 Y0.4629  
G01 X-1.6371 Y0.0440  
G01 X-1.2204 Y0.0440  
G01 X-1.1376 Y0.1268  
G01 X-1.1430 Y0.1322  
G01 X-1.1430 Y0.1678  
G01 X-1.1190 Y0.1918  
G01 X-1.1190 Y0.2082  
G01 X-1.1430 Y0.2322  
G01 X-1.1430 Y0.2678  
G01 X-1.1229 Y0.2879  
G01 X-1.1484 Y0.5435  
G01 X-1.2552 Y0.7060  
G01 X-1.4171 Y0.7060  
G01 X-1.5810 Y0.5421  
G01 X-1.5810 Y0.4386  
G01 X-1.5775 Y0.4368  
G01 X-1.5720 Y0.4328  
G01 X-1.5672 Y0.4280  
G01 X-1.5632 Y0.4225  
G01 X-1.5602 Y0.4165  
G01 X-1.5581 Y0.4101  
G01 X-1.5570 Y0.4034  
G01 X-1.5570 Y0.3966  
G01 X-1.5581 Y0.3899  
G01 X-1.5602 Y0.3835  
G01 X-1.5632 Y0.3775  
G01 X-1.5672 Y0.3720  
G01 X-1.5720 Y0.3672  
G01 X-1.5775 Y0.3632  
G01 X-1.5835 Y0.3602  
G01 X-1.5899 Y0.3581  
G01 X-1.5966 Y0.3570  
G01 X-1.6034 Y0.3570  
G01 X-1.6101 Y0.3581  
G01 X-1.6165 Y0.3602  
G01 X-1.6225 Y0.3632  
G01 X-1.6280 Y0.3672  
G01 X-1.6328 Y0.3720  
G01 X-1.6368 Y0.3775  
G01 X-1.6386 Y0.3810  
G01 X-1.7114 Y0.3810  
G01 X-1.7132 Y0.3775  
G01 X-1.7172 Y0.3720  
G01 X-1.7220 Y0.3672  
G01 X-1.7275 Y0.3632  
G01 X-1.7335 Y0.3602  
G01 X-1.7399 Y0.3581  
G01 X-1.7466 Y0.3570  
G01 X-1.7534 Y0.3570  
G01 X-1.7601 Y0.3581  
G01 X-1.7665 Y0.3602  
G01 X-1.7725 Y0.3632  
G01 X-1.7780 Y0.3672  
G01 X-1.7828 Y0.3720  
G01 X-1.7868 Y0.3775  
G01 X-1.7898 Y0.3835  
G01 X-1.7919 Y0.3899  
G01 X-1.7930 Y0.3966  
G01 X-1.7930 Y0.4034  
G01 X-1.7919 Y0.4101  
G01 X-1.7898 Y0.4165  
G01 X-1.7868 Y0.4225  
G01 X-1.7828 Y0.4280  
G01 X-1.7780 Y0.4328  
G01 X-1.7725 Y0.4368  
G01 X-1.7665 Y0.4398  
G01 X-1.7601 Y0.4419  
G01 X-1.7534 Y0.4430  
G01 X-1.7466 Y0.4430  
G01 X-1.7399 Y0.4419  
G01 X-1.7335 Y0.4398  
G01 X-1.7275 Y0.4368  
G01 X-1.7220 Y0.4328  
G01 X-1.7172 Y0.4280  
G01 X-1.7132 Y0.4225  
G01 X-1.7114 Y0.4190  
G01 X-1.6386 Y0.4190  
G01 X-1.6368 Y0.4225  
G01 X-1.6328 Y0.4280  
G01 X-1.6280 Y0.4328  
G01 X-1.6225 Y0.4368  
G01 X-1.6190 Y0.4386  
G01 X-1.6190 Y0.5525  
G01 X-1.6177 Y0.5573  
G01 X-1.6152 Y0.5617  
G01 X-1.4402 Y0.7367  
G01 X-1.4367 Y0.7402  
G01 X-1.4323 Y0.7427  
G01 X-1.4275 Y0.7440  
G01 X-1.2455 Y0.7440  
G01 X-1.2436 Y0.7441  
G01 X-1.2431 Y0.7440  
G01 X-1.2425 Y0.7440  
G01 X-1.2406 Y0.7435  
G01 X-1.2387 Y0.7431  
G01 X-1.2382 Y0.7428  
G01 X-1.2377 Y0.7427  
G01 X-1.2360 Y0.7417  
G01 X-1.2342 Y0.7409  
G01 X-1.2338 Y0.7405  
G01 X-1.2333 Y0.7402  
G01 X-1.2320 Y0.7388  
G01 X-1.2305 Y0.7375  
G01 X-1.2302 Y0.7371  
G01 X-1.2298 Y0.7367  
G01 X-1.2288 Y0.7350  
G01 X-1.1143 Y0.5608  
G01 X-1.1131 Y0.5591  
G01 X-1.1130 Y0.5587  
G01 X-1.1127 Y0.5583  
G01 X-1.1121 Y0.5563  
G01 X-1.1113 Y0.5544  
G01 X-1.1113 Y0.5540  
G01 X-1.1112 Y0.5536  
G01 X-1.1111 Y0.5515  
G01 X-1.0852 Y0.2930  
G01 X-1.0822 Y0.2930  
G01 X-1.0570 Y0.2678  
G01 X-1.0570 Y0.2322  
G01 X-1.0810 Y0.2082  
G01 X-1.0810 Y0.1918  
G01 X-1.0570 Y0.1678  
G01 X-1.0570 Y0.1322  
G01 X-1.0580 Y0.1312  
G01 X-1.0164 Y0.0840  
G01 X-0.7542 Y0.0840  
G01 X-0.6388 Y0.2314  
G01 X-0.6398 Y0.2335  
G01 X-0.6419 Y0.2399  
G01 X-0.6430 Y0.2466  
G01 X-0.6430 Y0.2534  
G01 X-0.6419 Y0.2601  
G01 X-0.6398 Y0.2665  
G01 X-0.6368 Y0.2725  
G01 X-0.6328 Y0.2780  
G01 X-0.6280 Y0.2828  
G01 X-0.6225 Y0.2868  
G01 X-0.6165 Y0.2898  
G01 X-0.6101 Y0.2919  
G01 X-0.6034 Y0.2930  
G01 X-0.5966 Y0.2930  
G01 X-0.5899 Y0.2919  
G01 X-0.5835 Y0.2898  
G01 X-0.5775 Y0.2868  
G01 X-0.5720 Y0.2828  
G00 Z0.0500  
G00 X-0.7570 Y0.2678  
G01 Z-0.0040 F10    
G01 X-0.7570 Y0.2322  F20    
G01 X-0.7822 Y0.2070  
G01 X-0.8178 Y0.2070  
G01 X-0.8430 Y0.2322  
G01 X-0.8430 Y0.2678  
G01 X-0.8178 Y0.2930  
G01 X-0.7822 Y0.2930  
G01 X-0.7570 Y0.2678  
G00 Z0.0500  
G00 X-0.7822 Y0.1930  
G01 Z-0.0040 F10    
G01 X-0.7570 Y0.1678  F20    
G01 X-0.7570 Y0.1322  
G01 X-0.7822 Y0.1070  
G01 X-0.8178 Y0.1070  
G01 X-0.8430 Y0.1322  
G01 X-0.8430 Y0.1678  
G01 X-0.8178 Y0.1930  
G01 X-0.7822 Y0.1930  
G00 Z0.0500  
G00 X-0.8822 Y0.1930  
G01 Z-0.0040 F10    
G01 X-0.8570 Y0.1678  F20    
G01 X-0.8570 Y0.1322  
G01 X-0.8822 Y0.1070  
G01 X-0.9178 Y0.1070  
G01 X-0.9430 Y0.1322  
G01 X-0.9430 Y0.1678  
G01 X-0.9178 Y0.1930  
G01 X-0.8822 Y0.1930  
G00 Z0.0500  
G00 X-0.8822 Y0.2070  
G01 Z-0.0040 F10    
G01 X-0.9178 Y0.2070  F20    
G01 X-0.9430 Y0.2322  
G01 X-0.9430 Y0.2678  
G01 X-0.9178 Y0.2930  
G01 X-0.8822 Y0.2930  
G01 X-0.8570 Y0.2678  
G01 X-0.8570 Y0.2322  
G01 X-0.8822 Y0.2070  
G00 Z0.0500  
G00 X-0.9570 Y0.2322  
G01 Z-0.0040 F10    
G01 X-0.9822 Y0.2070  F20    
G01 X-1.0178 Y0.2070  
G01 X-1.0430 Y0.2322  
G01 X-1.0430 Y0.2678  
G01 X-1.0178 Y0.2930  
G01 X-0.9822 Y0.2930  
G01 X-0.9570 Y0.2678  
G01 X-0.9570 Y0.2322  
G00 Z0.0500  
G00 X-0.9822 Y0.1930  
G01 Z-0.0040 F10    
G01 X-0.9570 Y0.1678  F20    
G01 X-0.9570 Y0.1322  
G01 X-0.9822 Y0.1070  
G01 X-1.0178 Y0.1070  
G01 X-1.0430 Y0.1322  
G01 X-1.0430 Y0.1678  
G01 X-1.0178 Y0.1930  
G01 X-0.9822 Y0.1930  
G00 Z0.0500  
G00 X-1.1570 Y0.1678  
G01 Z-0.0040 F10    
G01 X-1.1570 Y0.1322  F20    
G01 X-1.1822 Y0.1070  
G01 X-1.2178 Y0.1070  
G01 X-1.2418 Y0.1310  
G01 X-1.2582 Y0.1310  
G01 X-1.2822 Y0.1070  
G01 X-1.3178 Y0.1070  
G01 X-1.3418 Y0.1310  
G01 X-1.3582 Y0.1310  
G01 X-1.3822 Y0.1070  
G01 X-1.3978 Y0.1070  
G01 X-1.4264 Y0.0649  
G01 X-1.4273 Y0.0633  
G01 X-1.4278 Y0.0628  
G01 X-1.4282 Y0.0622  
G01 X-1.4296 Y0.0611  
G01 X-1.4308 Y0.0598  
G01 X-1.4314 Y0.0594  
G01 X-1.4320 Y0.0590  
G01 X-1.4336 Y0.0582  
G01 X-1.4352 Y0.0573  
G01 X-1.4359 Y0.0571  
G01 X-1.4365 Y0.0568  
G01 X-1.4383 Y0.0565  
G01 X-1.4400 Y0.0560  
G01 X-1.4407 Y0.0560  
G01 X-1.4414 Y0.0559  
G01 X-1.4432 Y0.0560  
G01 X-1.6152 Y0.0560  
G01 X-1.6153 Y0.0560  
G01 X-1.6177 Y0.0560  
G01 X-1.6200 Y0.0560  
G01 X-1.6202 Y0.0560  
G01 X-1.6203 Y0.0560  
G01 X-1.6226 Y0.0567  
G01 X-1.6248 Y0.0573  
G01 X-1.6250 Y0.0574  
G01 X-1.6251 Y0.0574  
G01 X-1.6271 Y0.0586  
G01 X-1.6292 Y0.0598  
G01 X-1.6293 Y0.0599  
G01 X-1.6294 Y0.0600  
G01 X-1.6310 Y0.0617  
G01 X-1.6327 Y0.0633  
G01 X-1.6328 Y0.0635  
G01 X-1.9136 Y0.3542  
G01 X-1.9152 Y0.3558  
G01 X-1.9153 Y0.3560  
G01 X-1.9154 Y0.3561  
G01 X-1.9165 Y0.3581  
G01 X-1.9177 Y0.3602  
G01 X-1.9177 Y0.3603  
G01 X-1.9178 Y0.3605  
G01 X-1.9179 Y0.3609  
G01 X-1.9225 Y0.3632  
G01 X-1.9280 Y0.3672  
G01 X-1.9328 Y0.3720  
G01 X-1.9368 Y0.3775  
G01 X-1.9398 Y0.3835  
G01 X-1.9419 Y0.3899  
G01 X-1.9430 Y0.3966  
G01 X-1.9430 Y0.4034  
G01 X-1.9419 Y0.4101  
G01 X-1.9398 Y0.4165  
G01 X-1.9368 Y0.4225  
G01 X-1.9328 Y0.4280  
G01 X-1.9280 Y0.4328  
G01 X-1.9225 Y0.4368  
G01 X-1.9190 Y0.4386  
G01 X-1.9190 Y0.6196  
G01 X-2.0367 Y0.7373  
G01 X-2.0402 Y0.7408  
G01 X-2.0427 Y0.7452  
G01 X-2.0440 Y0.7500  
G01 X-2.0440 Y0.8500  
G01 X-2.0427 Y0.8548  
G01 X-2.0402 Y0.8592  
G01 X-1.9267 Y0.9727  
G01 X-1.9258 Y0.9738  
G01 X-1.9249 Y0.9745  
G01 X-1.9242 Y0.9752  
G01 X-1.9229 Y0.9759  
G01 X-1.9217 Y0.9768  
G01 X-1.9208 Y0.9772  
G01 X-1.9198 Y0.9777  
G01 X-1.9190 Y0.9779  
G01 X-1.9190 Y0.9921  
G01 X-1.9952 Y1.0683  
G01 X-1.9968 Y1.0680  
G01 X-2.0032 Y1.0680  
G01 X-2.0093 Y1.0692  
G01 X-2.0152 Y1.0716  
G01 X-2.0204 Y1.0751  
G01 X-2.0249 Y1.0796  
G01 X-2.0284 Y1.0848  
G01 X-2.0308 Y1.0907  
G01 X-2.0320 Y1.0968  
G01 X-2.0320 Y1.1032  
G01 X-2.0308 Y1.1093  
G01 X-2.0284 Y1.1152  
G01 X-2.0249 Y1.1204  
G01 X-2.0204 Y1.1249  
G01 X-2.0152 Y1.1284  
G01 X-2.0093 Y1.1308  
G01 X-2.0084 Y1.1310  
G01 X-1.8190 Y1.3204  
G01 X-1.8190 Y1.5237  
G01 X-1.8320 Y1.5367  
G01 X-1.8320 Y1.5633  
G01 X-1.8133 Y1.5820  
G01 X-1.7867 Y1.5820  
G01 X-1.7737 Y1.5690  
G01 X-1.6599 Y1.5690  
G01 X-1.6177 Y1.6293  
G01 X-1.6198 Y1.6335  
G01 X-1.6219 Y1.6399  
G01 X-1.6230 Y1.6466  
G01 X-1.6230 Y1.6534  
G01 X-1.6219 Y1.6601  
G01 X-1.6198 Y1.6665  
G01 X-1.6168 Y1.6725  
G01 X-1.6128 Y1.6780  
G01 X-1.6080 Y1.6828  
G01 X-1.6025 Y1.6868  
G01 X-1.5965 Y1.6898  
G01 X-1.5901 Y1.6919  
G01 X-1.5834 Y1.6930  
G01 X-1.5766 Y1.6930  
G01 X-1.5699 Y1.6919  
G01 X-1.5635 Y1.6898  
G01 X-1.5575 Y1.6868  
G01 X-1.5520 Y1.6828  
G01 X-1.5472 Y1.6780  
G01 X-1.5432 Y1.6725  
G01 X-1.5402 Y1.6665  
G01 X-1.5381 Y1.6601  
G01 X-1.5370 Y1.6534  
G01 X-1.5370 Y1.6466  
G01 X-1.5381 Y1.6399  
G01 X-1.5402 Y1.6335  
G01 X-1.5432 Y1.6275  
G01 X-1.5472 Y1.6220  
G01 X-1.5520 Y1.6172  
G01 X-1.5575 Y1.6132  
G01 X-1.5635 Y1.6102  
G01 X-1.5699 Y1.6081  
G01 X-1.5766 Y1.6070  
G01 X-1.5834 Y1.6070  
G01 X-1.5866 Y1.6075  
G01 X-1.6340 Y1.5398  
G01 X-1.6348 Y1.5383  
G01 X-1.6354 Y1.5377  
G01 X-1.6359 Y1.5371  
G01 X-1.6372 Y1.5360  
G01 X-1.6383 Y1.5348  
G01 X-1.6391 Y1.5344  
G01 X-1.6397 Y1.5338  
G01 X-1.6412 Y1.5331  
G01 X-1.6427 Y1.5323  
G01 X-1.6435 Y1.5321  
G01 X-1.6442 Y1.5317  
G01 X-1.6459 Y1.5314  
G01 X-1.6475 Y1.5310  
G01 X-1.6483 Y1.5310  
G01 X-1.6492 Y1.5309  
G01 X-1.6508 Y1.5310  
G01 X-1.7737 Y1.5310  
G01 X-1.7810 Y1.5237  
G01 X-1.7810 Y1.3100  
G01 X-1.7823 Y1.3052  
G01 X-1.7848 Y1.3008  
G01 X-1.9713 Y1.1143  
G01 X-1.9692 Y1.1093  
G01 X-1.9680 Y1.1032  
G01 X-1.9680 Y1.0968  
G01 X-1.9683 Y1.0952  
G01 X-1.8848 Y1.0117  
G01 X-1.8823 Y1.0073  
G01 X-1.8810 Y1.0025  
G01 X-1.8810 Y0.9763  
G01 X-1.8680 Y0.9633  
G01 X-1.8680 Y0.9367  
G01 X-1.8867 Y0.9180  
G01 X-1.9133 Y0.9180  
G01 X-1.9204 Y0.9252  
G01 X-2.0060 Y0.8396  
G01 X-2.0060 Y0.7604  
G01 X-1.8848 Y0.6392  
G01 X-1.8823 Y0.6348  
G01 X-1.8810 Y0.6300  
G01 X-1.8810 Y0.4386  
G01 X-1.8775 Y0.4368  
G01 X-1.8720 Y0.4328  
G01 X-1.8672 Y0.4280  
G01 X-1.8632 Y0.4225  
G01 X-1.8602 Y0.4165  
G01 X-1.8581 Y0.4101  
G01 X-1.8570 Y0.4034  
G01 X-1.8570 Y0.3966  
G01 X-1.8581 Y0.3899  
G01 X-1.8602 Y0.3835  
G01 X-1.8632 Y0.3775  
G01 X-1.8672 Y0.3720  
G01 X-1.8720 Y0.3672  
G01 X-1.8728 Y0.3666  
G01 X-1.6094 Y0.0940  
G01 X-1.4526 Y0.0940  
G01 X-1.4332 Y0.1224  
G01 X-1.4430 Y0.1322  
G01 X-1.4430 Y0.1678  
G01 X-1.4178 Y0.1930  
G01 X-1.3822 Y0.1930  
G01 X-1.3582 Y0.1690  
G01 X-1.3418 Y0.1690  
G01 X-1.3178 Y0.1930  
G01 X-1.2822 Y0.1930  
G01 X-1.2582 Y0.1690  
G01 X-1.2418 Y0.1690  
G01 X-1.2190 Y0.1918  
G01 X-1.2190 Y0.2082  
G01 X-1.2418 Y0.2310  
G01 X-1.2582 Y0.2310  
G01 X-1.2822 Y0.2070  
G01 X-1.3178 Y0.2070  
G01 X-1.3418 Y0.2310  
G01 X-1.3582 Y0.2310  
G01 X-1.3822 Y0.2070  
G01 X-1.4178 Y0.2070  
G01 X-1.4430 Y0.2322  
G01 X-1.4430 Y0.2678  
G01 X-1.4178 Y0.2930  
G01 X-1.3822 Y0.2930  
G01 X-1.3690 Y0.2798  
G01 X-1.3690 Y0.4614  
G01 X-1.3725 Y0.4632  
G01 X-1.3780 Y0.4672  
G01 X-1.3828 Y0.4720  
G01 X-1.3868 Y0.4775  
G01 X-1.3898 Y0.4835  
G01 X-1.3919 Y0.4899  
G01 X-1.3930 Y0.4966  
G01 X-1.3930 Y0.5034  
G01 X-1.3919 Y0.5101  
G01 X-1.3898 Y0.5165  
G01 X-1.3868 Y0.5225  
G01 X-1.3828 Y0.5280  
G01 X-1.3780 Y0.5328  
G01 X-1.3725 Y0.5368  
G01 X-1.3665 Y0.5398  
G01 X-1.3601 Y0.5419  
G01 X-1.3534 Y0.5430  
G01 X-1.3466 Y0.5430  
G01 X-1.3464 Y0.5430  
G01 X-1.3190 Y0.5704  
G01 X-1.3190 Y0.6114  
G01 X-1.3225 Y0.6132  
G01 X-1.3280 Y0.6172  
G01 X-1.3328 Y0.6220  
G01 X-1.3368 Y0.6275  
G01 X-1.3398 Y0.6335  
G01 X-1.3419 Y0.6399  
G01 X-1.3430 Y0.6466  
G01 X-1.3430 Y0.6534  
G01 X-1.3419 Y0.6601  
G01 X-1.3398 Y0.6665  
G01 X-1.3368 Y0.6725  
G01 X-1.3328 Y0.6780  
G01 X-1.3280 Y0.6828  
G01 X-1.3225 Y0.6868  
G01 X-1.3165 Y0.6898  
G01 X-1.3101 Y0.6919  
G01 X-1.3034 Y0.6930  
G01 X-1.2966 Y0.6930  
G01 X-1.2899 Y0.6919  
G01 X-1.2835 Y0.6898  
G01 X-1.2775 Y0.6868  
G01 X-1.2720 Y0.6828  
G01 X-1.2672 Y0.6780  
G01 X-1.2632 Y0.6725  
G01 X-1.2602 Y0.6665  
G01 X-1.2581 Y0.6601  
G01 X-1.2570 Y0.6534  
G01 X-1.2570 Y0.6466  
G01 X-1.2581 Y0.6399  
G01 X-1.2602 Y0.6335  
G01 X-1.2632 Y0.6275  
G01 X-1.2672 Y0.6220  
G01 X-1.2720 Y0.6172  
G01 X-1.2775 Y0.6132  
G01 X-1.2810 Y0.6114  
G01 X-1.2810 Y0.5600  
G01 X-1.2823 Y0.5552  
G01 X-1.2848 Y0.5508  
G01 X-1.3132 Y0.5225  
G01 X-1.3102 Y0.5165  
G01 X-1.3081 Y0.5101  
G01 X-1.3070 Y0.5034  
G01 X-1.3070 Y0.4966  
G01 X-1.3081 Y0.4899  
G01 X-1.3102 Y0.4835  
G01 X-1.3132 Y0.4775  
G01 X-1.3172 Y0.4720  
G01 X-1.3220 Y0.4672  
G01 X-1.3275 Y0.4632  
G01 X-1.3310 Y0.4614  
G01 X-1.3310 Y0.2798  
G01 X-1.3178 Y0.2930  
G01 X-1.2822 Y0.2930  
G01 X-1.2582 Y0.2690  
G01 X-1.2418 Y0.2690  
G01 X-1.2178 Y0.2930  
G01 X-1.1822 Y0.2930  
G01 X-1.1570 Y0.2678  
G01 X-1.1570 Y0.2322  
G01 X-1.1810 Y0.2082  
G01 X-1.1810 Y0.1918  
G01 X-1.1570 Y0.1678  
G00 Z0.0500  
G00 X-1.4015 Y0.4299  
G01 Z-0.0040 F10    
G01 X-1.4299 Y0.4015  F20    
G01 X-1.4701 Y0.4015  
G01 X-1.4985 Y0.4299  
G01 X-1.4985 Y0.4701  
G01 X-1.4701 Y0.4985  
G01 X-1.4690 Y0.4985  
G01 X-1.4690 Y0.5614  
G01 X-1.4725 Y0.5632  
G01 X-1.4780 Y0.5672  
G01 X-1.4828 Y0.5720  
G01 X-1.4868 Y0.5775  
G01 X-1.4898 Y0.5835  
G01 X-1.4919 Y0.5899  
G01 X-1.4930 Y0.5966  
G01 X-1.4930 Y0.6034  
G01 X-1.4919 Y0.6101  
G01 X-1.4898 Y0.6165  
G01 X-1.4868 Y0.6225  
G01 X-1.4828 Y0.6280  
G01 X-1.4780 Y0.6328  
G01 X-1.4725 Y0.6368  
G01 X-1.4665 Y0.6398  
G01 X-1.4601 Y0.6419  
G01 X-1.4534 Y0.6430  
G01 X-1.4466 Y0.6430  
G01 X-1.4399 Y0.6419  
G01 X-1.4335 Y0.6398  
G01 X-1.4275 Y0.6368  
G01 X-1.4220 Y0.6328  
G01 X-1.4172 Y0.6280  
G01 X-1.4132 Y0.6225  
G01 X-1.4102 Y0.6165  
G01 X-1.4081 Y0.6101  
G01 X-1.4070 Y0.6034  
G01 X-1.4070 Y0.5966  
G01 X-1.4081 Y0.5899  
G01 X-1.4102 Y0.5835  
G01 X-1.4132 Y0.5775  
G01 X-1.4172 Y0.5720  
G01 X-1.4220 Y0.5672  
G01 X-1.4275 Y0.5632  
G01 X-1.4310 Y0.5614  
G01 X-1.4310 Y0.4985  
G01 X-1.4299 Y0.4985  
G01 X-1.4015 Y0.4701  
G01 X-1.4015 Y0.4299  
G00 Z0.0500  
G00 X-1.5098 Y0.7633  
G01 Z-0.0040 F10    
G01 X-1.5598 Y0.7133  F20    
G01 X-1.5633 Y0.7098  
G01 X-1.5677 Y0.7073  
G01 X-1.5725 Y0.7060  
G01 X-1.6775 Y0.7060  
G01 X-1.6823 Y0.7073  
G01 X-1.6867 Y0.7098  
G01 X-1.7362 Y0.7593  
G01 X-1.7399 Y0.7581  
G01 X-1.7466 Y0.7570  
G01 X-1.7534 Y0.7570  
G01 X-1.7601 Y0.7581  
G01 X-1.7665 Y0.7602  
G01 X-1.7725 Y0.7632  
G01 X-1.7780 Y0.7672  
G01 X-1.7828 Y0.7720  
G01 X-1.7868 Y0.7775  
G01 X-1.7886 Y0.7810  
G01 X-1.8614 Y0.7810  
G01 X-1.8632 Y0.7775  
G01 X-1.8672 Y0.7720  
G01 X-1.8720 Y0.7672  
G01 X-1.8775 Y0.7632  
G01 X-1.8835 Y0.7602  
G01 X-1.8899 Y0.7581  
G01 X-1.8966 Y0.7570  
G01 X-1.9034 Y0.7570  
G01 X-1.9101 Y0.7581  
G01 X-1.9165 Y0.7602  
G01 X-1.9225 Y0.7632  
G01 X-1.9280 Y0.7672  
G01 X-1.9328 Y0.7720  
G01 X-1.9368 Y0.7775  
G01 X-1.9398 Y0.7835  
G01 X-1.9419 Y0.7899  
G01 X-1.9430 Y0.7966  
G01 X-1.9430 Y0.8034  
G01 X-1.9419 Y0.8101  
G01 X-1.9398 Y0.8165  
G01 X-1.9368 Y0.8225  
G01 X-1.9328 Y0.8280  
G01 X-1.9280 Y0.8328  
G01 X-1.9225 Y0.8368  
G01 X-1.9165 Y0.8398  
G01 X-1.9101 Y0.8419  
G01 X-1.9034 Y0.8430  
G01 X-1.8966 Y0.8430  
G01 X-1.8899 Y0.8419  
G01 X-1.8835 Y0.8398  
G01 X-1.8775 Y0.8368  
G01 X-1.8720 Y0.8328  
G01 X-1.8672 Y0.8280  
G01 X-1.8632 Y0.8225  
G01 X-1.8614 Y0.8190  
G01 X-1.7886 Y0.8190  
G01 X-1.7868 Y0.8225  
G01 X-1.7828 Y0.8280  
G01 X-1.7780 Y0.8328  
G01 X-1.7725 Y0.8368  
G01 X-1.7665 Y0.8398  
G01 X-1.7601 Y0.8419  
G01 X-1.7534 Y0.8430  
G01 X-1.7499 Y0.8430  
G01 X-1.6877 Y0.9208  
G01 X-1.6691 Y1.0117  
G01 X-1.6691 Y1.0120  
G01 X-1.6686 Y1.0141  
G01 X-1.6681 Y1.0163  
G01 X-1.6680 Y1.0165  
G01 X-1.6563 Y1.0657  
G01 X-1.6477 Y1.1473  
G01 X-1.6874 Y1.1706  
G01 X-1.6907 Y1.1692  
G01 X-1.6968 Y1.1680  
G01 X-1.7032 Y1.1680  
G01 X-1.7093 Y1.1692  
G01 X-1.7152 Y1.1716  
G01 X-1.7204 Y1.1751  
G01 X-1.7249 Y1.1796  
G01 X-1.7284 Y1.1848  
G01 X-1.7308 Y1.1907  
G01 X-1.7320 Y1.1968  
G01 X-1.7320 Y1.2032  
G01 X-1.7308 Y1.2093  
G01 X-1.7284 Y1.2152  
G01 X-1.7249 Y1.2204  
G01 X-1.7204 Y1.2249  
G01 X-1.7152 Y1.2284  
G01 X-1.7093 Y1.2308  
G01 X-1.7032 Y1.2320  
G01 X-1.6968 Y1.2320  
G01 X-1.6907 Y1.2308  
G01 X-1.6848 Y1.2284  
G01 X-1.6796 Y1.2249  
G01 X-1.6751 Y1.2204  
G01 X-1.6716 Y1.2152  
G01 X-1.6692 Y1.2093  
G01 X-1.6680 Y1.2033  
G01 X-1.6192 Y1.1747  
G01 X-1.6184 Y1.1743  
G01 X-1.6171 Y1.1734  
G01 X-1.6157 Y1.1726  
G01 X-1.6151 Y1.1720  
G01 X-1.6143 Y1.1714  
G01 X-1.6133 Y1.1702  
G01 X-1.6122 Y1.1691  
G01 X-1.6118 Y1.1682  
G01 X-1.6112 Y1.1675  
G01 X-1.6105 Y1.1661  
G01 X-1.6097 Y1.1647  
G01 X-1.6095 Y1.1638  
G01 X-1.6091 Y1.1629  
G01 X-1.6089 Y1.1614  
G01 X-1.6085 Y1.1599  
G01 X-1.6085 Y1.1589  
G01 X-1.6083 Y1.1580  
G01 X-1.6085 Y1.1564  
G01 X-1.6085 Y1.1549  
G01 X-1.6088 Y1.1540  
G01 X-1.6185 Y1.0618  
G01 X-1.6184 Y1.0605  
G01 X-1.6187 Y1.0593  
G01 X-1.6189 Y1.0580  
G01 X-1.6193 Y1.0569  
G01 X-1.6314 Y1.0059  
G01 X-1.6513 Y0.9092  
G01 X-1.6516 Y0.9072  
G01 X-1.6518 Y0.9067  
G01 X-1.6519 Y0.9062  
G01 X-1.6528 Y0.9044  
G01 X-1.6536 Y0.9026  
G01 X-1.6539 Y0.9022  
G01 X-1.6541 Y0.9018  
G01 X-1.6555 Y0.9002  
G01 X-1.7153 Y0.8254  
G01 X-1.7132 Y0.8225  
G01 X-1.7102 Y0.8165  
G01 X-1.7081 Y0.8101  
G01 X-1.7070 Y0.8034  
G01 X-1.7070 Y0.7966  
G01 X-1.7081 Y0.7899  
G01 X-1.7093 Y0.7862  
G01 X-1.6671 Y0.7440  
G01 X-1.5829 Y0.7440  
G01 X-1.5440 Y0.7829  
G01 X-1.5440 Y1.0275  
G01 X-1.5427 Y1.0323  
G01 X-1.5402 Y1.0367  
G01 X-1.5367 Y1.0402  
G01 X-1.4867 Y1.0902  
G01 X-1.4823 Y1.0927  
G01 X-1.4775 Y1.0940  
G01 X-1.4004 Y1.0940  
G01 X-1.3354 Y1.1589  
G01 X-1.3352 Y1.1598  
G01 X-1.3348 Y1.1606  
G01 X-1.3314 Y1.1696  
G01 X-1.3317 Y1.1711  
G01 X-1.3317 Y1.2289  
G01 X-1.3305 Y1.2350  
G01 X-1.3281 Y1.2408  
G01 X-1.3247 Y1.2460  
G01 X-1.3202 Y1.2504  
G01 X-1.3150 Y1.2539  
G01 X-1.3093 Y1.2563  
G01 X-1.3031 Y1.2575  
G01 X-1.2969 Y1.2575  
G01 X-1.2907 Y1.2563  
G01 X-1.2850 Y1.2539  
G01 X-1.2798 Y1.2504  
G01 X-1.2753 Y1.2460  
G01 X-1.2719 Y1.2408  
G01 X-1.2695 Y1.2350  
G01 X-1.2683 Y1.2289  
G01 X-1.2683 Y1.1711  
G01 X-1.2695 Y1.1650  
G01 X-1.2719 Y1.1592  
G01 X-1.2753 Y1.1540  
G01 X-1.2798 Y1.1496  
G01 X-1.2850 Y1.1461  
G01 X-1.2907 Y1.1437  
G01 X-1.2969 Y1.1425  
G01 X-1.2999 Y1.1425  
G01 X-1.3023 Y1.1383  
G01 X-1.3773 Y1.0633  
G01 X-1.3808 Y1.0598  
G01 X-1.3852 Y1.0573  
G01 X-1.3900 Y1.0560  
G01 X-1.4671 Y1.0560  
G01 X-1.5060 Y1.0171  
G01 X-1.5060 Y0.7725  
G01 X-1.5073 Y0.7677  
G01 X-1.5098 Y0.7633  
G00 Z0.0500  
G00 X-1.5672 Y0.7720  
G01 Z-0.0040 F10    
G01 X-1.5720 Y0.7672  F20    
G01 X-1.5775 Y0.7632  
G01 X-1.5835 Y0.7602  
G01 X-1.5899 Y0.7581  
G01 X-1.5966 Y0.7570  
G01 X-1.6034 Y0.7570  
G01 X-1.6101 Y0.7581  
G01 X-1.6165 Y0.7602  
G01 X-1.6225 Y0.7632  
G01 X-1.6280 Y0.7672  
G01 X-1.6328 Y0.7720  
G01 X-1.6368 Y0.7775  
G01 X-1.6398 Y0.7835  
G01 X-1.6419 Y0.7899  
G01 X-1.6430 Y0.7966  
G01 X-1.6430 Y0.8034  
G01 X-1.6419 Y0.8101  
G01 X-1.6398 Y0.8165  
G01 X-1.6368 Y0.8225  
G01 X-1.6328 Y0.8280  
G01 X-1.6280 Y0.8328  
G01 X-1.6225 Y0.8368  
G01 X-1.6171 Y0.8395  
G01 X-1.6090 Y1.0080  
G01 X-1.6090 Y1.0101  
G01 X-1.6089 Y1.0105  
G01 X-1.6089 Y1.0109  
G01 X-1.6082 Y1.0129  
G01 X-1.5893 Y1.0824  
G01 X-1.5898 Y1.0835  
G01 X-1.5919 Y1.0899  
G01 X-1.5930 Y1.0966  
G01 X-1.5930 Y1.1034  
G01 X-1.5919 Y1.1101  
G01 X-1.5898 Y1.1165  
G01 X-1.5868 Y1.1225  
G01 X-1.5828 Y1.1280  
G01 X-1.5780 Y1.1328  
G01 X-1.5725 Y1.1368  
G01 X-1.5690 Y1.1386  
G01 X-1.5690 Y1.2810  
G01 X-1.6742 Y1.2810  
G01 X-1.6751 Y1.2796  
G01 X-1.6796 Y1.2751  
G01 X-1.6848 Y1.2716  
G01 X-1.6907 Y1.2692  
G01 X-1.6968 Y1.2680  
G01 X-1.7032 Y1.2680  
G01 X-1.7093 Y1.2692  
G01 X-1.7152 Y1.2716  
G01 X-1.7204 Y1.2751  
G01 X-1.7249 Y1.2796  
G01 X-1.7284 Y1.2848  
G01 X-1.7308 Y1.2907  
G01 X-1.7320 Y1.2968  
G01 X-1.7320 Y1.3032  
G01 X-1.7308 Y1.3093  
G01 X-1.7284 Y1.3152  
G01 X-1.7249 Y1.3204  
G01 X-1.7204 Y1.3249  
G01 X-1.7152 Y1.3284  
G01 X-1.7093 Y1.3308  
G01 X-1.7032 Y1.3320  
G01 X-1.6968 Y1.3320  
G01 X-1.6907 Y1.3308  
G01 X-1.6848 Y1.3284  
G01 X-1.6796 Y1.3249  
G01 X-1.6751 Y1.3204  
G01 X-1.6742 Y1.3190  
G01 X-1.1954 Y1.3190  
G01 X-1.0565 Y1.4579  
G01 X-1.0565 Y1.4650  
G01 X-1.0552 Y1.4698  
G01 X-1.0527 Y1.4742  
G01 X-1.0492 Y1.4777  
G01 X-1.0317 Y1.4951  
G01 X-1.0317 Y1.5289  
G01 X-1.0305 Y1.5350  
G01 X-1.0281 Y1.5408  
G01 X-1.0247 Y1.5460  
G01 X-1.0202 Y1.5504  
G01 X-1.0150 Y1.5539  
G01 X-1.0093 Y1.5563  
G01 X-1.0031 Y1.5575  
G01 X-0.9969 Y1.5575  
G01 X-0.9907 Y1.5563  
G01 X-0.9850 Y1.5539  
G01 X-0.9798 Y1.5504  
G01 X-0.9753 Y1.5460  
G01 X-0.9719 Y1.5408  
G01 X-0.9695 Y1.5350  
G01 X-0.9683 Y1.5289  
G01 X-0.9683 Y1.4711  
G01 X-0.9695 Y1.4650  
G01 X-0.9719 Y1.4592  
G01 X-0.9753 Y1.4540  
G01 X-0.9798 Y1.4496  
G01 X-0.9850 Y1.4461  
G01 X-0.9907 Y1.4437  
G01 X-0.9969 Y1.4425  
G01 X-1.0031 Y1.4425  
G01 X-1.0093 Y1.4437  
G01 X-1.0150 Y1.4461  
G01 X-1.0185 Y1.4484  
G01 X-1.0185 Y1.4475  
G01 X-1.0198 Y1.4427  
G01 X-1.0223 Y1.4383  
G01 X-1.1723 Y1.2883  
G01 X-1.1758 Y1.2848  
G01 X-1.1802 Y1.2823  
G01 X-1.1850 Y1.2810  
G01 X-1.5310 Y1.2810  
G01 X-1.5310 Y1.1386  
G01 X-1.5275 Y1.1368  
G01 X-1.5220 Y1.1328  
G01 X-1.5172 Y1.1280  
G01 X-1.5132 Y1.1225  
G01 X-1.5102 Y1.1165  
G01 X-1.5081 Y1.1101  
G01 X-1.5070 Y1.1034  
G01 X-1.5070 Y1.0966  
G01 X-1.5081 Y1.0899  
G01 X-1.5102 Y1.0835  
G01 X-1.5132 Y1.0775  
G01 X-1.5172 Y1.0720  
G01 X-1.5220 Y1.0672  
G01 X-1.5275 Y1.0632  
G01 X-1.5335 Y1.0602  
G01 X-1.5399 Y1.0581  
G01 X-1.5466 Y1.0570  
G01 X-1.5534 Y1.0570  
G01 X-1.5567 Y1.0575  
G01 X-1.5711 Y1.0045  
G01 X-1.5792 Y0.8376  
G01 X-1.5775 Y0.8368  
G01 X-1.5720 Y0.8328  
G01 X-1.5672 Y0.8280  
G01 X-1.5632 Y0.8225  
G01 X-1.5602 Y0.8165  
G01 X-1.5581 Y0.8101  
G01 X-1.5570 Y0.8034  
G01 X-1.5570 Y0.7966  
G01 X-1.5581 Y0.7899  
G01 X-1.5602 Y0.7835  
G01 X-1.5632 Y0.7775  
G01 X-1.5672 Y0.7720  
G00 Z0.0500  
G00 X-1.4780 Y0.9672  
G01 Z-0.0040 F10    
G01 X-1.4828 Y0.9720  F20    
G01 X-1.4868 Y0.9775  
G01 X-1.4898 Y0.9835  
G01 X-1.4919 Y0.9899  
G01 X-1.4930 Y0.9966  
G01 X-1.4930 Y1.0034  
G01 X-1.4919 Y1.0101  
G01 X-1.4898 Y1.0165  
G01 X-1.4868 Y1.0225  
G01 X-1.4828 Y1.0280  
G01 X-1.4780 Y1.0328  
G01 X-1.4725 Y1.0368  
G01 X-1.4665 Y1.0398  
G01 X-1.4601 Y1.0419  
G01 X-1.4534 Y1.0430  
G01 X-1.4466 Y1.0430  
G01 X-1.4399 Y1.0419  
G01 X-1.4335 Y1.0398  
G01 X-1.4275 Y1.0368  
G01 X-1.4220 Y1.0328  
G01 X-1.4172 Y1.0280  
G01 X-1.4132 Y1.0225  
G01 X-1.4102 Y1.0165  
G01 X-1.4081 Y1.0101  
G01 X-1.4070 Y1.0034  
G01 X-1.4070 Y0.9966  
G01 X-1.4074 Y0.9940  
G01 X-1.0581 Y0.9940  
G01 X-1.0553 Y0.9949  
G01 X-1.0548 Y0.9952  
G01 X-1.0530 Y0.9957  
G01 X-1.0511 Y0.9963  
G01 X-1.0506 Y0.9964  
G01 X-1.0500 Y0.9965  
G01 X-1.0481 Y0.9965  
G01 X-1.0461 Y0.9966  
G01 X-1.0456 Y0.9965  
G01 X-1.0450 Y0.9965  
G01 X-1.0431 Y0.9960  
G01 X-1.0412 Y0.9956  
G01 X-1.0407 Y0.9954  
G01 X-1.0402 Y0.9952  
G01 X-1.0385 Y0.9942  
G01 X-1.0368 Y0.9934  
G01 X-1.0363 Y0.9930  
G01 X-1.0358 Y0.9927  
G01 X-1.0345 Y0.9913  
G01 X-1.0330 Y0.9901  
G01 X-1.0327 Y0.9896  
G01 X-1.0323 Y0.9892  
G01 X-1.0313 Y0.9875  
G01 X-1.0303 Y0.9859  
G01 X-1.0301 Y0.9853  
G01 X-1.0298 Y0.9848  
G01 X-1.0293 Y0.9830  
G01 X-1.0287 Y0.9811  
G01 X-1.0286 Y0.9806  
G01 X-1.0285 Y0.9800  
G01 X-1.0285 Y0.9781  
G01 X-1.0284 Y0.9761  
G01 X-1.0285 Y0.9756  
G01 X-1.0285 Y0.9275  
G01 X-1.0245 Y0.9275  
G01 X-1.0025 Y0.9055  
G01 X-1.0025 Y0.8745  
G01 X-1.0245 Y0.8525  
G01 X-1.0555 Y0.8525  
G01 X-1.0775 Y0.8745  
G01 X-1.0775 Y0.9055  
G01 X-1.0720 Y0.9111  
G01 X-1.0698 Y0.9153  
G01 X-1.0692 Y0.9169  
G01 X-1.0687 Y0.9175  
G01 X-1.0684 Y0.9182  
G01 X-1.0672 Y0.9195  
G01 X-1.0665 Y0.9205  
G01 X-1.0665 Y0.9560  
G01 X-1.4275 Y0.9560  
G01 X-1.4323 Y0.9573  
G01 X-1.4359 Y0.9594  
G01 X-1.4399 Y0.9581  
G01 X-1.4466 Y0.9570  
G01 X-1.4534 Y0.9570  
G01 X-1.4601 Y0.9581  
G01 X-1.4665 Y0.9602  
G01 X-1.4725 Y0.9632  
G01 X-1.4780 Y0.9672  
G00 Z0.0500  
G00 X-1.3280 Y1.0172  
G01 Z-0.0040 F10    
G01 X-1.3328 Y1.0220  F20    
G01 X-1.3368 Y1.0275  
G01 X-1.3398 Y1.0335  
G01 X-1.3419 Y1.0399  
G01 X-1.3430 Y1.0466  
G01 X-1.3430 Y1.0534  
G01 X-1.3419 Y1.0601  
G01 X-1.3398 Y1.0665  
G01 X-1.3368 Y1.0725  
G01 X-1.3328 Y1.0780  
G01 X-1.3280 Y1.0828  
G01 X-1.3225 Y1.0868  
G01 X-1.3165 Y1.0898  
G01 X-1.3101 Y1.0919  
G01 X-1.3034 Y1.0930  
G01 X-1.2966 Y1.0930  
G01 X-1.2899 Y1.0919  
G01 X-1.2862 Y1.0907  
G01 X-1.2238 Y1.1531  
G01 X-1.2247 Y1.1540  
G01 X-1.2281 Y1.1592  
G01 X-1.2305 Y1.1650  
G01 X-1.2317 Y1.1711  
G01 X-1.2317 Y1.2289  
G01 X-1.2305 Y1.2350  
G01 X-1.2281 Y1.2408  
G01 X-1.2247 Y1.2460  
G01 X-1.2202 Y1.2504  
G01 X-1.2150 Y1.2539  
G01 X-1.2093 Y1.2563  
G01 X-1.2031 Y1.2575  
G01 X-1.1969 Y1.2575  
G01 X-1.1907 Y1.2563  
G01 X-1.1850 Y1.2539  
G01 X-1.1798 Y1.2504  
G01 X-1.1753 Y1.2460  
G01 X-1.1719 Y1.2408  
G01 X-1.1695 Y1.2350  
G01 X-1.1683 Y1.2289  
G01 X-1.1683 Y1.1711  
G01 X-1.1695 Y1.1650  
G01 X-1.1719 Y1.1592  
G01 X-1.1753 Y1.1540  
G01 X-1.1798 Y1.1496  
G01 X-1.1810 Y1.1488  
G01 X-1.1810 Y1.1475  
G01 X-1.1823 Y1.1427  
G01 X-1.1848 Y1.1383  
G01 X-1.2593 Y1.0638  
G01 X-1.2581 Y1.0601  
G01 X-1.2570 Y1.0534  
G01 X-1.2570 Y1.0466  
G01 X-1.2581 Y1.0399  
G01 X-1.2602 Y1.0335  
G01 X-1.2632 Y1.0275  
G01 X-1.2672 Y1.0220  
G01 X-1.2720 Y1.0172  
G01 X-1.2775 Y1.0132  
G01 X-1.2835 Y1.0102  
G01 X-1.2899 Y1.0081  
G01 X-1.2966 Y1.0070  
G01 X-1.3034 Y1.0070  
G01 X-1.3101 Y1.0081  
G01 X-1.3165 Y1.0102  
G01 X-1.3225 Y1.0132  
G01 X-1.3280 Y1.0172  
G00 Z0.0500  
G00 X-1.2280 Y1.0172  
G01 Z-0.0040 F10    
G01 X-1.2328 Y1.0220  F20    
G01 X-1.2368 Y1.0275  
G01 X-1.2398 Y1.0335  
G01 X-1.2419 Y1.0399  
G01 X-1.2430 Y1.0466  
G01 X-1.2430 Y1.0534  
G01 X-1.2419 Y1.0601  
G01 X-1.2398 Y1.0665  
G01 X-1.2368 Y1.0725  
G01 X-1.2328 Y1.0780  
G01 X-1.2280 Y1.0828  
G01 X-1.2225 Y1.0868  
G01 X-1.2165 Y1.0898  
G01 X-1.2101 Y1.0919  
G01 X-1.2034 Y1.0930  
G01 X-1.1966 Y1.0930  
G01 X-1.1899 Y1.0919  
G01 X-1.1835 Y1.0898  
G01 X-1.1775 Y1.0868  
G01 X-1.1720 Y1.0828  
G01 X-1.1672 Y1.0780  
G01 X-1.1632 Y1.0725  
G01 X-1.1614 Y1.0690  
G01 X-1.1254 Y1.0690  
G01 X-1.0317 Y1.1627  
G01 X-1.0303 Y1.1644  
G01 X-1.0305 Y1.1650  
G01 X-1.0317 Y1.1711  
G01 X-1.0317 Y1.2289  
G01 X-1.0305 Y1.2350  
G01 X-1.0281 Y1.2408  
G01 X-1.0247 Y1.2460  
G01 X-1.0202 Y1.2504  
G01 X-1.0150 Y1.2539  
G01 X-1.0093 Y1.2563  
G01 X-1.0031 Y1.2575  
G01 X-0.9969 Y1.2575  
G01 X-0.9907 Y1.2563  
G01 X-0.9850 Y1.2539  
G01 X-0.9798 Y1.2504  
G01 X-0.9753 Y1.2460  
G01 X-0.9719 Y1.2408  
G01 X-0.9695 Y1.2350  
G01 X-0.9683 Y1.2289  
G01 X-0.9683 Y1.1711  
G01 X-0.9695 Y1.1650  
G01 X-0.9719 Y1.1592  
G01 X-0.9753 Y1.1540  
G01 X-0.9798 Y1.1496  
G01 X-0.9850 Y1.1461  
G01 X-0.9907 Y1.1437  
G01 X-0.9969 Y1.1425  
G01 X-0.9992 Y1.1425  
G01 X-1.0018 Y1.1393  
G01 X-1.0023 Y1.1383  
G01 X-1.0033 Y1.1373  
G01 X-1.0042 Y1.1362  
G01 X-1.0051 Y1.1355  
G01 X-1.1023 Y1.0383  
G01 X-1.1058 Y1.0348  
G01 X-1.1102 Y1.0323  
G01 X-1.1150 Y1.0310  
G01 X-1.1614 Y1.0310  
G01 X-1.1632 Y1.0275  
G01 X-1.1672 Y1.0220  
G01 X-1.1720 Y1.0172  
G01 X-1.1775 Y1.0132  
G01 X-1.1835 Y1.0102  
G01 X-1.1899 Y1.0081  
G01 X-1.1966 Y1.0070  
G01 X-1.2034 Y1.0070  
G01 X-1.2101 Y1.0081  
G01 X-1.2165 Y1.0102  
G01 X-1.2225 Y1.0132  
G01 X-1.2280 Y1.0172  
G00 Z0.0500  
G00 X-1.3753 Y1.1540  
G01 Z-0.0040 F10    
G01 X-1.3798 Y1.1496  F20    
G01 X-1.3850 Y1.1461  
G01 X-1.3907 Y1.1437  
G01 X-1.3969 Y1.1425  
G01 X-1.4031 Y1.1425  
G01 X-1.4093 Y1.1437  
G01 X-1.4150 Y1.1461  
G01 X-1.4202 Y1.1496  
G01 X-1.4247 Y1.1540  
G01 X-1.4281 Y1.1592  
G01 X-1.4305 Y1.1650  
G01 X-1.4317 Y1.1711  
G01 X-1.4317 Y1.2289  
G01 X-1.4305 Y1.2350  
G01 X-1.4281 Y1.2408  
G01 X-1.4247 Y1.2460  
G01 X-1.4202 Y1.2504  
G01 X-1.4150 Y1.2539  
G01 X-1.4093 Y1.2563  
G01 X-1.4031 Y1.2575  
G01 X-1.3969 Y1.2575  
G01 X-1.3907 Y1.2563  
G01 X-1.3850 Y1.2539  
G01 X-1.3798 Y1.2504  
G01 X-1.3753 Y1.2460  
G01 X-1.3719 Y1.2408  
G01 X-1.3695 Y1.2350  
G01 X-1.3683 Y1.2289  
G01 X-1.3683 Y1.1711  
G01 X-1.3695 Y1.1650  
G01 X-1.3719 Y1.1592  
G01 X-1.3753 Y1.1540  
G00 Z0.0500  
G00 X-1.3753 Y1.4540  
G01 Z-0.0040 F10    
G01 X-1.3798 Y1.4496  F20    
G01 X-1.3850 Y1.4461  
G01 X-1.3907 Y1.4437  
G01 X-1.3969 Y1.4425  
G01 X-1.4031 Y1.4425  
G01 X-1.4093 Y1.4437  
G01 X-1.4150 Y1.4461  
G01 X-1.4202 Y1.4496  
G01 X-1.4247 Y1.4540  
G01 X-1.4281 Y1.4592  
G01 X-1.4305 Y1.4650  
G01 X-1.4317 Y1.4711  
G01 X-1.4317 Y1.5289  
G01 X-1.4305 Y1.5350  
G01 X-1.4281 Y1.5408  
G01 X-1.4247 Y1.5460  
G01 X-1.4202 Y1.5504  
G01 X-1.4150 Y1.5539  
G01 X-1.4093 Y1.5563  
G01 X-1.4031 Y1.5575  
G01 X-1.3969 Y1.5575  
G01 X-1.3921 Y1.5565  
G01 X-1.3880 Y1.5612  
G01 X-1.3877 Y1.5617  
G01 X-1.3863 Y1.5630  
G01 X-1.3850 Y1.5645  
G01 X-1.3846 Y1.5648  
G01 X-1.2877 Y1.6617  
G01 X-1.2842 Y1.6652  
G01 X-1.2798 Y1.6677  
G01 X-1.2750 Y1.6690  
G01 X-1.2186 Y1.6690  
G01 X-1.2168 Y1.6725  
G01 X-1.2128 Y1.6780  
G01 X-1.2080 Y1.6828  
G01 X-1.2025 Y1.6868  
G01 X-1.1965 Y1.6898  
G01 X-1.1901 Y1.6919  
G01 X-1.1834 Y1.6930  
G01 X-1.1766 Y1.6930  
G01 X-1.1699 Y1.6919  
G01 X-1.1635 Y1.6898  
G01 X-1.1575 Y1.6868  
G01 X-1.1520 Y1.6828  
G01 X-1.1472 Y1.6780  
G01 X-1.1432 Y1.6725  
G01 X-1.1414 Y1.6690  
G01 X-0.3824 Y1.6690  
G01 X-0.3791 Y1.6739  
G01 X-0.3739 Y1.6791  
G01 X-0.3678 Y1.6832  
G01 X-0.3609 Y1.6861  
G01 X-0.3537 Y1.6875  
G01 X-0.3463 Y1.6875  
G01 X-0.3391 Y1.6861  
G01 X-0.3322 Y1.6832  
G01 X-0.3261 Y1.6791  
G01 X-0.3209 Y1.6739  
G01 X-0.3168 Y1.6678  
G01 X-0.3139 Y1.6609  
G01 X-0.3125 Y1.6537  
G01 X-0.3125 Y1.6463  
G01 X-0.3139 Y1.6391  
G01 X-0.3168 Y1.6322  
G01 X-0.3209 Y1.6261  
G01 X-0.3261 Y1.6209  
G01 X-0.3310 Y1.6176  
G01 X-0.3310 Y1.5386  
G01 X-0.3275 Y1.5368  
G01 X-0.3220 Y1.5328  
G01 X-0.3172 Y1.5280  
G01 X-0.3132 Y1.5225  
G01 X-0.3102 Y1.5165  
G01 X-0.3081 Y1.5101  
G01 X-0.3070 Y1.5034  
G01 X-0.3070 Y1.4966  
G01 X-0.3081 Y1.4899  
G01 X-0.3102 Y1.4835  
G01 X-0.3132 Y1.4775  
G01 X-0.3172 Y1.4720  
G01 X-0.3220 Y1.4672  
G01 X-0.3275 Y1.4632  
G01 X-0.3335 Y1.4602  
G01 X-0.3399 Y1.4581  
G01 X-0.3466 Y1.4570  
G01 X-0.3534 Y1.4570  
G01 X-0.3601 Y1.4581  
G01 X-0.3665 Y1.4602  
G01 X-0.3725 Y1.4632  
G01 X-0.3780 Y1.4672  
G01 X-0.3828 Y1.4720  
G01 X-0.3868 Y1.4775  
G01 X-0.3898 Y1.4835  
G01 X-0.3919 Y1.4899  
G01 X-0.3930 Y1.4966  
G01 X-0.3930 Y1.5034  
G01 X-0.3919 Y1.5101  
G01 X-0.3898 Y1.5165  
G01 X-0.3868 Y1.5225  
G01 X-0.3828 Y1.5280  
G01 X-0.3780 Y1.5328  
G01 X-0.3725 Y1.5368  
G01 X-0.3690 Y1.5386  
G01 X-0.3690 Y1.6176  
G01 X-0.3739 Y1.6209  
G01 X-0.3791 Y1.6261  
G01 X-0.3824 Y1.6310  
G01 X-1.1414 Y1.6310  
G01 X-1.1432 Y1.6275  
G01 X-1.1472 Y1.6220  
G01 X-1.1520 Y1.6172  
G01 X-1.1575 Y1.6132  
G01 X-1.1635 Y1.6102  
G01 X-1.1699 Y1.6081  
G01 X-1.1766 Y1.6070  
G01 X-1.1834 Y1.6070  
G01 X-1.1901 Y1.6081  
G01 X-1.1965 Y1.6102  
G01 X-1.2025 Y1.6132  
G01 X-1.2080 Y1.6172  
G01 X-1.2128 Y1.6220  
G01 X-1.2168 Y1.6275  
G01 X-1.2186 Y1.6310  
G01 X-1.2646 Y1.6310  
G01 X-1.3587 Y1.5370  
G01 X-1.3683 Y1.5262  
G01 X-1.3683 Y1.4711  
G01 X-1.3695 Y1.4650  
G01 X-1.3719 Y1.4592  
G01 X-1.3753 Y1.4540  
G00 Z0.0500  
G00 X-1.3247 Y1.4540  
G01 Z-0.0040 F10    
G01 X-1.3281 Y1.4592  F20    
G01 X-1.3305 Y1.4650  
G01 X-1.3317 Y1.4711  
G01 X-1.3317 Y1.5289  
G01 X-1.3305 Y1.5350  
G01 X-1.3281 Y1.5408  
G01 X-1.3247 Y1.5460  
G01 X-1.3202 Y1.5504  
G01 X-1.3150 Y1.5539  
G01 X-1.3093 Y1.5563  
G01 X-1.3031 Y1.5575  
G01 X-1.2969 Y1.5575  
G01 X-1.2907 Y1.5563  
G01 X-1.2850 Y1.5539  
G01 X-1.2798 Y1.5504  
G01 X-1.2753 Y1.5460  
G01 X-1.2719 Y1.5408  
G01 X-1.2695 Y1.5350  
G01 X-1.2683 Y1.5289  
G01 X-1.2683 Y1.4711  
G01 X-1.2695 Y1.4650  
G01 X-1.2719 Y1.4592  
G01 X-1.2753 Y1.4540  
G01 X-1.2798 Y1.4496  
G01 X-1.2850 Y1.4461  
G01 X-1.2907 Y1.4437  
G01 X-1.2969 Y1.4425  
G01 X-1.3031 Y1.4425  
G01 X-1.3093 Y1.4437  
G01 X-1.3150 Y1.4461  
G01 X-1.3202 Y1.4496  
G01 X-1.3247 Y1.4540  
G00 Z0.0500  
G00 X-1.2616 Y1.4315  
G01 Z-0.0040 F10    
G01 X-1.2276 Y1.4584  F20    
G01 X-1.2281 Y1.4592  
G01 X-1.2305 Y1.4650  
G01 X-1.2317 Y1.4711  
G01 X-1.2317 Y1.5289  
G01 X-1.2305 Y1.5350  
G01 X-1.2281 Y1.5408  
G01 X-1.2247 Y1.5460  
G01 X-1.2202 Y1.5504  
G01 X-1.2150 Y1.5539  
G01 X-1.2093 Y1.5563  
G01 X-1.2031 Y1.5575  
G01 X-1.1969 Y1.5575  
G01 X-1.1907 Y1.5563  
G01 X-1.1850 Y1.5539  
G01 X-1.1798 Y1.5504  
G01 X-1.1753 Y1.5460  
G01 X-1.1719 Y1.5408  
G01 X-1.1695 Y1.5350  
G01 X-1.1683 Y1.5289  
G01 X-1.1683 Y1.4711  
G01 X-1.1695 Y1.4650  
G01 X-1.1719 Y1.4592  
G01 X-1.1753 Y1.4540  
G01 X-1.1798 Y1.4496  
G01 X-1.1850 Y1.4461  
G01 X-1.1893 Y1.4443  
G01 X-1.1894 Y1.4440  
G01 X-1.1898 Y1.4427  
G01 X-1.1904 Y1.4417  
G01 X-1.1908 Y1.4406  
G01 X-1.1916 Y1.4395  
G01 X-1.1923 Y1.4383  
G01 X-1.1931 Y1.4375  
G01 X-1.1938 Y1.4366  
G01 X-1.1949 Y1.4358  
G01 X-1.1958 Y1.4348  
G01 X-1.1968 Y1.4342  
G01 X-1.2424 Y1.3983  
G01 X-1.2433 Y1.3973  
G01 X-1.2443 Y1.3967  
G01 X-1.2452 Y1.3960  
G01 X-1.2465 Y1.3955  
G01 X-1.2477 Y1.3948  
G01 X-1.2488 Y1.3945  
G01 X-1.2498 Y1.3941  
G01 X-1.2512 Y1.3939  
G01 X-1.2525 Y1.3935  
G01 X-1.2536 Y1.3935  
G01 X-1.2547 Y1.3933  
G01 X-1.2561 Y1.3935  
G01 X-1.4531 Y1.3935  
G01 X-1.4537 Y1.3934  
G01 X-1.4556 Y1.3935  
G01 X-1.4575 Y1.3935  
G01 X-1.4581 Y1.3937  
G01 X-1.4587 Y1.3937  
G01 X-1.4605 Y1.3943  
G01 X-1.4623 Y1.3948  
G01 X-1.4629 Y1.3951  
G01 X-1.4635 Y1.3953  
G01 X-1.4650 Y1.3964  
G01 X-1.4667 Y1.3973  
G01 X-1.4671 Y1.3977  
G01 X-1.4676 Y1.3981  
G01 X-1.4689 Y1.3995  
G01 X-1.4702 Y1.4008  
G01 X-1.4705 Y1.4014  
G01 X-1.4709 Y1.4018  
G01 X-1.4718 Y1.4035  
G01 X-1.4727 Y1.4052  
G01 X-1.4729 Y1.4058  
G01 X-1.4731 Y1.4063  
G01 X-1.4735 Y1.4082  
G01 X-1.4740 Y1.4100  
G01 X-1.4740 Y1.4106  
G01 X-1.4810 Y1.4457  
G01 X-1.4815 Y1.4475  
G01 X-1.4815 Y1.4481  
G01 X-1.4816 Y1.4487  
G01 X-1.4815 Y1.4506  
G01 X-1.4815 Y1.5525  
G01 X-1.4802 Y1.5573  
G01 X-1.4777 Y1.5617  
G01 X-1.3027 Y1.7367  
G01 X-1.2992 Y1.7402  
G01 X-1.2948 Y1.7427  
G01 X-1.2900 Y1.7440  
G01 X-0.2253 Y1.7440  
G01 X-0.2231 Y1.7441  
G01 X-0.2228 Y1.7440  
G01 X-0.2225 Y1.7440  
G01 X-0.2204 Y1.7434  
G01 X-0.2182 Y1.7429  
G01 X-0.2180 Y1.7428  
G01 X-0.2177 Y1.7427  
G01 X-0.2158 Y1.7416  
G01 X-0.2138 Y1.7406  
G01 X-0.2136 Y1.7404  
G01 X-0.2133 Y1.7402  
G01 X-0.2118 Y1.7387  
G01 X-0.0536 Y1.5904  
G01 X-0.0533 Y1.5902  
G01 X-0.0518 Y1.5887  
G01 X-0.0502 Y1.5872  
G01 X-0.0500 Y1.5869  
G01 X-0.0498 Y1.5867  
G01 X-0.0487 Y1.5848  
G01 X-0.0475 Y1.5829  
G01 X-0.0475 Y1.5826  
G01 X-0.0473 Y1.5823  
G01 X-0.0467 Y1.5802  
G01 X-0.0461 Y1.5781  
G01 X-0.0461 Y1.5778  
G01 X-0.0460 Y1.5775  
G01 X-0.0460 Y1.5753  
G01 X-0.0459 Y1.5731  
G01 X-0.0460 Y1.5728  
G01 X-0.0460 Y1.4725  
G01 X-0.0473 Y1.4677  
G01 X-0.0498 Y1.4633  
G01 X-0.0998 Y1.4133  
G01 X-0.1033 Y1.4098  
G01 X-0.1077 Y1.4073  
G01 X-0.1125 Y1.4060  
G01 X-0.5940 Y1.4060  
G01 X-0.5954 Y1.4058  
G01 X-0.5965 Y1.4060  
G01 X-0.5975 Y1.4060  
G01 X-0.5989 Y1.4064  
G01 X-0.6004 Y1.4066  
G01 X-0.6013 Y1.4070  
G01 X-0.6023 Y1.4073  
G01 X-0.6036 Y1.4080  
G01 X-0.6049 Y1.4086  
G01 X-0.6058 Y1.4093  
G01 X-0.6067 Y1.4098  
G01 X-0.6077 Y1.4108  
G01 X-0.6088 Y1.4117  
G01 X-0.6095 Y1.4126  
G01 X-0.6102 Y1.4133  
G01 X-0.6109 Y1.4146  
G01 X-0.6425 Y1.4577  
G01 X-0.6466 Y1.4570  
G01 X-0.6534 Y1.4570  
G01 X-0.6601 Y1.4581  
G01 X-0.6665 Y1.4602  
G01 X-0.6725 Y1.4632  
G01 X-0.6780 Y1.4672  
G01 X-0.6828 Y1.4720  
G01 X-0.6868 Y1.4775  
G01 X-0.6898 Y1.4835  
G01 X-0.6919 Y1.4899  
G01 X-0.6930 Y1.4966  
G01 X-0.6930 Y1.5034  
G01 X-0.6919 Y1.5101  
G01 X-0.6898 Y1.5165  
G01 X-0.6868 Y1.5225  
G01 X-0.6828 Y1.5280  
G01 X-0.6780 Y1.5328  
G01 X-0.6725 Y1.5368  
G01 X-0.6665 Y1.5398  
G01 X-0.6601 Y1.5419  
G01 X-0.6534 Y1.5430  
G01 X-0.6466 Y1.5430  
G01 X-0.6399 Y1.5419  
G01 X-0.6335 Y1.5398  
G01 X-0.6275 Y1.5368  
G01 X-0.6220 Y1.5328  
G01 X-0.6172 Y1.5280  
G01 X-0.6132 Y1.5225  
G01 X-0.6102 Y1.5165  
G01 X-0.6081 Y1.5101  
G01 X-0.6070 Y1.5034  
G01 X-0.6070 Y1.4966  
G01 X-0.6081 Y1.4899  
G01 X-0.6102 Y1.4835  
G01 X-0.6119 Y1.4801  
G01 X-0.5854 Y1.4440  
G01 X-0.1229 Y1.4440  
G01 X-0.0840 Y1.4829  
G01 X-0.0840 Y1.5668  
G01 X-0.2325 Y1.7060  
G01 X-1.2796 Y1.7060  
G01 X-1.4435 Y1.5421  
G01 X-1.4435 Y1.4519  
G01 X-1.4394 Y1.4315  
G01 X-1.2616 Y1.4315  
G00 Z0.0500  
G00 X-1.1202 Y1.4496  
G01 Z-0.0040 F10    
G01 X-1.1247 Y1.4540  F20    
G01 X-1.1281 Y1.4592  
G01 X-1.1305 Y1.4650  
G01 X-1.1317 Y1.4711  
G01 X-1.1317 Y1.5289  
G01 X-1.1305 Y1.5350  
G01 X-1.1281 Y1.5408  
G01 X-1.1247 Y1.5460  
G01 X-1.1202 Y1.5504  
G01 X-1.1150 Y1.5539  
G01 X-1.1093 Y1.5563  
G01 X-1.1031 Y1.5575  
G01 X-1.0969 Y1.5575  
G01 X-1.0907 Y1.5563  
G01 X-1.0850 Y1.5539  
G01 X-1.0798 Y1.5504  
G01 X-1.0753 Y1.5460  
G01 X-1.0719 Y1.5408  
G01 X-1.0695 Y1.5350  
G01 X-1.0683 Y1.5289  
G01 X-1.0683 Y1.4711  
G01 X-1.0695 Y1.4650  
G01 X-1.0719 Y1.4592  
G01 X-1.0753 Y1.4540  
G01 X-1.0798 Y1.4496  
G01 X-1.0850 Y1.4461  
G01 X-1.0907 Y1.4437  
G01 X-1.0969 Y1.4425  
G01 X-1.1031 Y1.4425  
G01 X-1.1093 Y1.4437  
G01 X-1.1150 Y1.4461  
G01 X-1.1202 Y1.4496  
G00 Z0.0500  
G00 X-0.9202 Y1.4496  
G01 Z-0.0040 F10    
G01 X-0.9247 Y1.4540  F20    
G01 X-0.9281 Y1.4592  
G01 X-0.9305 Y1.4650  
G01 X-0.9317 Y1.4711  
G01 X-0.9317 Y1.5289  
G01 X-0.9305 Y1.5350  
G01 X-0.9281 Y1.5408  
G01 X-0.9247 Y1.5460  
G01 X-0.9202 Y1.5504  
G01 X-0.9150 Y1.5539  
G01 X-0.9093 Y1.5563  
G01 X-0.9031 Y1.5575  
G01 X-0.8969 Y1.5575  
G01 X-0.8907 Y1.5563  
G01 X-0.8850 Y1.5539  
G01 X-0.8798 Y1.5504  
G01 X-0.8753 Y1.5460  
G01 X-0.8719 Y1.5408  
G01 X-0.8695 Y1.5350  
G01 X-0.8683 Y1.5289  
G01 X-0.8683 Y1.4711  
G01 X-0.8695 Y1.4650  
G01 X-0.8719 Y1.4592  
G01 X-0.8753 Y1.4540  
G01 X-0.8798 Y1.4496  
G01 X-0.8850 Y1.4461  
G01 X-0.8907 Y1.4437  
G01 X-0.8969 Y1.4425  
G01 X-0.9031 Y1.4425  
G01 X-0.9093 Y1.4437  
G01 X-0.9150 Y1.4461  
G01 X-0.9202 Y1.4496  
G00 Z0.0500  
G00 X-0.9202 Y1.2504  
G01 Z-0.0040 F10    
G01 X-0.9150 Y1.2539  F20    
G01 X-0.9093 Y1.2563  
G01 X-0.9031 Y1.2575  
G01 X-0.8969 Y1.2575  
G01 X-0.8907 Y1.2563  
G01 X-0.8850 Y1.2539  
G01 X-0.8798 Y1.2504  
G01 X-0.8753 Y1.2460  
G01 X-0.8719 Y1.2408  
G01 X-0.8695 Y1.2350  
G01 X-0.8683 Y1.2289  
G01 X-0.8683 Y1.1711  
G01 X-0.8695 Y1.1650  
G01 X-0.8719 Y1.1592  
G01 X-0.8753 Y1.1540  
G01 X-0.8762 Y1.1531  
G01 X-0.8138 Y1.0907  
G01 X-0.8101 Y1.0919  
G01 X-0.8034 Y1.0930  
G01 X-0.7966 Y1.0930  
G01 X-0.7899 Y1.0919  
G01 X-0.7835 Y1.0898  
G01 X-0.7775 Y1.0868  
G01 X-0.7720 Y1.0828  
G01 X-0.7672 Y1.0780  
G01 X-0.7632 Y1.0725  
G01 X-0.7602 Y1.0665  
G01 X-0.7581 Y1.0601  
G01 X-0.7570 Y1.0534  
G01 X-0.7570 Y1.0466  
G01 X-0.7581 Y1.0399  
G01 X-0.7602 Y1.0335  
G01 X-0.7632 Y1.0275  
G01 X-0.7672 Y1.0220  
G01 X-0.7720 Y1.0172  
G01 X-0.7775 Y1.0132  
G01 X-0.7835 Y1.0102  
G01 X-0.7899 Y1.0081  
G01 X-0.7966 Y1.0070  
G01 X-0.8034 Y1.0070  
G01 X-0.8101 Y1.0081  
G01 X-0.8165 Y1.0102  
G01 X-0.8225 Y1.0132  
G01 X-0.8280 Y1.0172  
G01 X-0.8328 Y1.0220  
G01 X-0.8368 Y1.0275  
G01 X-0.8398 Y1.0335  
G01 X-0.8419 Y1.0399  
G01 X-0.8430 Y1.0466  
G01 X-0.8430 Y1.0534  
G01 X-0.8419 Y1.0601  
G01 X-0.8407 Y1.0638  
G01 X-0.9152 Y1.1383  
G01 X-0.9177 Y1.1427  
G01 X-0.9190 Y1.1475  
G01 X-0.9190 Y1.1488  
G01 X-0.9202 Y1.1496  
G01 X-0.9247 Y1.1540  
G01 X-0.9281 Y1.1592  
G01 X-0.9305 Y1.1650  
G01 X-0.9317 Y1.1711  
G01 X-0.9317 Y1.2289  
G01 X-0.9305 Y1.2350  
G01 X-0.9281 Y1.2408  
G01 X-0.9247 Y1.2460  
G01 X-0.9202 Y1.2504  
G00 Z0.0500  
G00 X-1.5172 Y1.4720  
G01 Z-0.0040 F10    
G01 X-1.5220 Y1.4672  F20    
G01 X-1.5275 Y1.4632  
G01 X-1.5335 Y1.4602  
G01 X-1.5399 Y1.4581  
G01 X-1.5466 Y1.4570  
G01 X-1.5534 Y1.4570  
G01 X-1.5601 Y1.4581  
G01 X-1.5638 Y1.4593  
G01 X-1.6383 Y1.3848  
G01 X-1.6427 Y1.3823  
G01 X-1.6475 Y1.3810  
G01 X-1.6742 Y1.3810  
G01 X-1.6751 Y1.3796  
G01 X-1.6796 Y1.3751  
G01 X-1.6848 Y1.3716  
G01 X-1.6907 Y1.3692  
G01 X-1.6968 Y1.3680  
G01 X-1.7032 Y1.3680  
G01 X-1.7093 Y1.3692  
G01 X-1.7152 Y1.3716  
G01 X-1.7204 Y1.3751  
G01 X-1.7249 Y1.3796  
G01 X-1.7284 Y1.3848  
G01 X-1.7308 Y1.3907  
G01 X-1.7320 Y1.3968  
G01 X-1.7320 Y1.4032  
G01 X-1.7308 Y1.4093  
G01 X-1.7284 Y1.4152  
G01 X-1.7249 Y1.4204  
G01 X-1.7204 Y1.4249  
G01 X-1.7152 Y1.4284  
G01 X-1.7093 Y1.4308  
G01 X-1.7032 Y1.4320  
G01 X-1.6968 Y1.4320  
G01 X-1.6907 Y1.4308  
G01 X-1.6848 Y1.4284  
G01 X-1.6796 Y1.4249  
G01 X-1.6751 Y1.4204  
G01 X-1.6742 Y1.4190  
G01 X-1.6579 Y1.4190  
G01 X-1.5907 Y1.4862  
G01 X-1.5919 Y1.4899  
G01 X-1.5930 Y1.4966  
G01 X-1.5930 Y1.5034  
G01 X-1.5919 Y1.5101  
G01 X-1.5898 Y1.5165  
G01 X-1.5868 Y1.5225  
G01 X-1.5828 Y1.5280  
G01 X-1.5780 Y1.5328  
G01 X-1.5725 Y1.5368  
G01 X-1.5665 Y1.5398  
G01 X-1.5621 Y1.5413  
G01 X-1.5140 Y1.6156  
G01 X-1.5140 Y1.6759  
G01 X-1.5517 Y1.7060  
G01 X-1.5989 Y1.7060  
G01 X-1.6277 Y1.6855  
G01 X-1.6283 Y1.6848  
G01 X-1.6297 Y1.6840  
G01 X-1.6310 Y1.6831  
G01 X-1.6319 Y1.6828  
G01 X-1.6327 Y1.6823  
G01 X-1.6342 Y1.6819  
G01 X-1.6357 Y1.6813  
G01 X-1.6366 Y1.6812  
G01 X-1.6375 Y1.6810  
G01 X-1.6391 Y1.6810  
G01 X-1.6407 Y1.6808  
G01 X-1.6416 Y1.6810  
G01 X-1.6876 Y1.6810  
G01 X-1.6909 Y1.6761  
G01 X-1.6961 Y1.6709  
G01 X-1.7022 Y1.6668  
G01 X-1.7091 Y1.6639  
G01 X-1.7163 Y1.6625  
G01 X-1.7237 Y1.6625  
G01 X-1.7309 Y1.6639  
G01 X-1.7378 Y1.6668  
G01 X-1.7439 Y1.6709  
G01 X-1.7491 Y1.6761  
G01 X-1.7532 Y1.6822  
G01 X-1.7561 Y1.6891  
G01 X-1.7575 Y1.6963  
G01 X-1.7575 Y1.7037  
G01 X-1.7561 Y1.7109  
G01 X-1.7532 Y1.7178  
G01 X-1.7491 Y1.7239  
G01 X-1.7439 Y1.7291  
G01 X-1.7378 Y1.7332  
G01 X-1.7309 Y1.7361  
G01 X-1.7237 Y1.7375  
G01 X-1.7163 Y1.7375  
G01 X-1.7091 Y1.7361  
G01 X-1.7022 Y1.7332  
G01 X-1.6961 Y1.7291  
G01 X-1.6909 Y1.7239  
G01 X-1.6876 Y1.7190  
G01 X-1.6461 Y1.7190  
G01 X-1.6173 Y1.7395  
G01 X-1.6167 Y1.7402  
G01 X-1.6153 Y1.7410  
G01 X-1.6140 Y1.7419  
G01 X-1.6131 Y1.7422  
G01 X-1.6123 Y1.7427  
G01 X-1.6108 Y1.7431  
G01 X-1.6093 Y1.7437  
G01 X-1.6084 Y1.7438  
G01 X-1.6075 Y1.7440  
G01 X-1.6059 Y1.7440  
G01 X-1.6043 Y1.7442  
G01 X-1.6034 Y1.7440  
G01 X-1.5461 Y1.7440  
G01 X-1.5446 Y1.7442  
G01 X-1.5436 Y1.7440  
G01 X-1.5425 Y1.7440  
G01 X-1.5411 Y1.7436  
G01 X-1.5397 Y1.7434  
G01 X-1.5387 Y1.7430  
G01 X-1.5377 Y1.7427  
G01 X-1.5364 Y1.7420  
G01 X-1.5351 Y1.7414  
G01 X-1.5343 Y1.7407  
G01 X-1.5333 Y1.7402  
G01 X-1.5323 Y1.7392  
G01 X-1.4843 Y1.7007  
G01 X-1.4833 Y1.7002  
G01 X-1.4823 Y1.6992  
G01 X-1.4812 Y1.6983  
G01 X-1.4805 Y1.6974  
G01 X-1.4798 Y1.6967  
G01 X-1.4791 Y1.6954  
G01 X-1.4782 Y1.6942  
G01 X-1.4778 Y1.6933  
G01 X-1.4773 Y1.6923  
G01 X-1.4769 Y1.6909  
G01 X-1.4764 Y1.6896  
G01 X-1.4763 Y1.6885  
G01 X-1.4760 Y1.6875  
G01 X-1.4760 Y1.6861  
G01 X-1.4758 Y1.6846  
G01 X-1.4760 Y1.6836  
G01 X-1.4760 Y1.6120  
G01 X-1.4759 Y1.6115  
G01 X-1.4760 Y1.6095  
G01 X-1.4760 Y1.6075  
G01 X-1.4761 Y1.6070  
G01 X-1.4762 Y1.6065  
G01 X-1.4768 Y1.6046  
G01 X-1.4773 Y1.6027  
G01 X-1.4775 Y1.6022  
G01 X-1.4777 Y1.6018  
G01 X-1.4788 Y1.6001  
G01 X-1.4798 Y1.5983  
G01 X-1.4801 Y1.5980  
G01 X-1.5222 Y1.5330  
G01 X-1.5220 Y1.5328  
G01 X-1.5172 Y1.5280  
G01 X-1.5132 Y1.5225  
G01 X-1.5102 Y1.5165  
G01 X-1.5081 Y1.5101  
G01 X-1.5070 Y1.5034  
G01 X-1.5070 Y1.4966  
G01 X-1.5081 Y1.4899  
G01 X-1.5102 Y1.4835  
G01 X-1.5132 Y1.4775  
G01 X-1.5172 Y1.4720  
G00 Z0.0500  
G00 X-1.7825 Y1.6845  
G01 Z-0.0040 F10    
G01 X-1.8045 Y1.6625  F20    
G01 X-1.8355 Y1.6625  
G01 X-1.8540 Y1.6810  
G01 X-1.9015 Y1.6810  
G01 X-1.9015 Y1.6799  
G01 X-1.9299 Y1.6515  
G01 X-1.9701 Y1.6515  
G01 X-1.9985 Y1.6799  
G01 X-1.9985 Y1.7201  
G01 X-1.9701 Y1.7485  
G01 X-1.9299 Y1.7485  
G01 X-1.9015 Y1.7201  
G01 X-1.9015 Y1.7190  
G01 X-1.8540 Y1.7190  
G01 X-1.8355 Y1.7375  
G01 X-1.8045 Y1.7375  
G01 X-1.7825 Y1.7155  
G01 X-1.7825 Y1.6845  
G00 Z0.0500  
G00 X-1.9796 Y1.3249  
G01 Z-0.0040 F10    
G01 X-1.9751 Y1.3204  F20    
G01 X-1.9716 Y1.3152  
G01 X-1.9692 Y1.3093  
G01 X-1.9680 Y1.3032  
G01 X-1.9680 Y1.2968  
G01 X-1.9692 Y1.2907  
G01 X-1.9716 Y1.2848  
G01 X-1.9751 Y1.2796  
G01 X-1.9796 Y1.2751  
G01 X-1.9810 Y1.2742  
G01 X-1.9810 Y1.2258  
G01 X-1.9796 Y1.2249  
G01 X-1.9751 Y1.2204  
G01 X-1.9716 Y1.2152  
G01 X-1.9692 Y1.2093  
G01 X-1.9680 Y1.2032  
G01 X-1.9680 Y1.1968  
G01 X-1.9692 Y1.1907  
G01 X-1.9716 Y1.1848  
G01 X-1.9751 Y1.1796  
G01 X-1.9796 Y1.1751  
G01 X-1.9848 Y1.1716  
G01 X-1.9907 Y1.1692  
G01 X-1.9968 Y1.1680  
G01 X-2.0032 Y1.1680  
G01 X-2.0093 Y1.1692  
G01 X-2.0152 Y1.1716  
G01 X-2.0204 Y1.1751  
G01 X-2.0249 Y1.1796  
G01 X-2.0284 Y1.1848  
G01 X-2.0308 Y1.1907  
G01 X-2.0320 Y1.1968  
G01 X-2.0320 Y1.2032  
G01 X-2.0308 Y1.2093  
G01 X-2.0284 Y1.2152  
G01 X-2.0249 Y1.2204  
G01 X-2.0204 Y1.2249  
G01 X-2.0190 Y1.2258  
G01 X-2.0190 Y1.2742  
G01 X-2.0204 Y1.2751  
G01 X-2.0249 Y1.2796  
G01 X-2.0284 Y1.2848  
G01 X-2.0308 Y1.2907  
G01 X-2.0320 Y1.2968  
G01 X-2.0320 Y1.3032  
G01 X-2.0308 Y1.3093  
G01 X-2.0284 Y1.3152  
G01 X-2.0249 Y1.3204  
G01 X-2.0204 Y1.3249  
G01 X-2.0152 Y1.3284  
G01 X-2.0093 Y1.3308  
G01 X-2.0032 Y1.3320  
G01 X-1.9968 Y1.3320  
G01 X-1.9907 Y1.3308  
G01 X-1.9848 Y1.3284  
G01 X-1.9796 Y1.3249  
G00 Z0.0500  
G00 X-0.1780 Y1.4672  
G01 Z-0.0040 F10    
G01 X-0.1828 Y1.4720  F20    
G01 X-0.1868 Y1.4775  
G01 X-0.1898 Y1.4835  
G01 X-0.1919 Y1.4899  
G01 X-0.1930 Y1.4966  
G01 X-0.1930 Y1.5034  
G01 X-0.1919 Y1.5101  
G01 X-0.1907 Y1.5138  
G01 X-0.2652 Y1.5883  
G01 X-0.2677 Y1.5927  
G01 X-0.2690 Y1.5975  
G01 X-0.2690 Y1.6160  
G01 X-0.2875 Y1.6345  
G01 X-0.2875 Y1.6655  
G01 X-0.2655 Y1.6875  
G01 X-0.2345 Y1.6875  
G01 X-0.2125 Y1.6655  
G01 X-0.2125 Y1.6345  
G01 X-0.2310 Y1.6160  
G01 X-0.2310 Y1.6079  
G01 X-0.1638 Y1.5407  
G01 X-0.1601 Y1.5419  
G01 X-0.1534 Y1.5430  
G01 X-0.1466 Y1.5430  
G01 X-0.1399 Y1.5419  
G01 X-0.1335 Y1.5398  
G01 X-0.1275 Y1.5368  
G01 X-0.1220 Y1.5328  
G01 X-0.1172 Y1.5280  
G01 X-0.1132 Y1.5225  
G01 X-0.1102 Y1.5165  
G01 X-0.1081 Y1.5101  
G01 X-0.1070 Y1.5034  
G01 X-0.1070 Y1.4966  
G01 X-0.1081 Y1.4899  
G01 X-0.1102 Y1.4835  
G01 X-0.1132 Y1.4775  
G01 X-0.1172 Y1.4720  
G01 X-0.1220 Y1.4672  
G01 X-0.1275 Y1.4632  
G01 X-0.1335 Y1.4602  
G01 X-0.1399 Y1.4581  
G01 X-0.1466 Y1.4570  
G01 X-0.1534 Y1.4570  
G01 X-0.1601 Y1.4581  
G01 X-0.1665 Y1.4602  
G01 X-0.1725 Y1.4632  
G01 X-0.1780 Y1.4672  
G00 Z0.0500  
G00 X-0.1296 Y0.0995  
G01 Z-0.0040 F10    
G01 X-0.1299 Y0.0993  F20    
G01 X-0.1302 Y0.0990  
G01 X-0.1321 Y0.0979  
G01 X-0.1340 Y0.0967  
G01 X-0.1344 Y0.0966  
G01 X-0.1348 Y0.0964  
G01 X-0.1369 Y0.0958  
G01 X-0.1391 Y0.0951  
G01 X-0.1395 Y0.0951  
G01 X-0.1399 Y0.0950  
G01 X-0.1421 Y0.0950  
G01 X-0.1443 Y0.0949  
G01 X-0.1447 Y0.0950  
G01 X-0.3626 Y0.0950  
G01 X-0.3629 Y0.0949  
G01 X-0.3652 Y0.0950  
G01 X-0.3676 Y0.0950  
G01 X-0.3679 Y0.0951  
G01 X-0.3681 Y0.0951  
G01 X-0.3704 Y0.0957  
G01 X-0.3727 Y0.0964  
G01 X-0.3729 Y0.0965  
G01 X-0.3732 Y0.0966  
G01 X-0.3752 Y0.0978  
G01 X-0.3773 Y0.0990  
G01 X-0.3775 Y0.0992  
G01 X-0.3777 Y0.0993  
G01 X-0.3793 Y0.1010  
G01 X-0.3810 Y0.1027  
G01 X-0.3811 Y0.1029  
G01 X-0.5742 Y0.3056  
G01 X-0.9657 Y0.3350  
G01 X-0.9675 Y0.3350  
G01 X-0.9683 Y0.3352  
G01 X-0.9691 Y0.3353  
G01 X-0.9708 Y0.3359  
G01 X-0.9726 Y0.3363  
G01 X-0.9733 Y0.3367  
G01 X-0.9741 Y0.3370  
G01 X-0.9756 Y0.3380  
G01 X-0.9772 Y0.3389  
G01 X-0.9778 Y0.3395  
G01 X-0.9784 Y0.3400  
G01 X-0.9796 Y0.3413  
G01 X-0.9809 Y0.3426  
G01 X-0.9813 Y0.3433  
G01 X-0.9819 Y0.3440  
G01 X-0.9827 Y0.3456  
G01 X-1.0660 Y0.4877  
G01 X-1.0673 Y0.4900  
G01 X-1.0686 Y0.4922  
G01 X-1.0686 Y0.4923  
G01 X-1.0693 Y0.4948  
G01 X-1.0700 Y0.4972  
G01 X-1.0700 Y0.4974  
G01 X-1.0700 Y0.4999  
G01 X-1.0700 Y0.5025  
G01 X-1.0700 Y0.5757  
G01 X-1.2319 Y0.7845  
G01 X-1.4238 Y0.7754  
G01 X-1.5865 Y0.6127  
G01 X-1.5902 Y0.6090  
G01 X-1.5948 Y0.6064  
G01 X-1.5999 Y0.6050  
G01 X-1.8050 Y0.6050  
G01 X-1.8050 Y0.3833  
G01 X-1.6917 Y0.2700  
G01 X-1.5422 Y0.2700  
G01 X-1.5182 Y0.2940  
G01 X-1.4818 Y0.2940  
G01 X-1.4560 Y0.2682  
G01 X-1.4560 Y0.2318  
G01 X-1.4800 Y0.2078  
G01 X-1.4800 Y0.1922  
G01 X-1.4560 Y0.1682  
G01 X-1.4560 Y0.1318  
G01 X-1.4818 Y0.1060  
G01 X-1.5182 Y0.1060  
G01 X-1.5440 Y0.1318  
G01 X-1.5440 Y0.1682  
G01 X-1.5200 Y0.1922  
G01 X-1.5200 Y0.2078  
G01 X-1.5422 Y0.2300  
G01 X-1.7026 Y0.2300  
G01 X-1.7077 Y0.2314  
G01 X-1.7123 Y0.2340  
G01 X-1.8373 Y0.3590  
G01 X-1.8410 Y0.3627  
G01 X-1.8436 Y0.3673  
G01 X-1.8450 Y0.3724  
G01 X-1.8450 Y0.6167  
G01 X-1.9873 Y0.7590  
G01 X-1.9910 Y0.7627  
G01 X-1.9936 Y0.7673  
G01 X-1.9950 Y0.7724  
G01 X-1.9950 Y0.8276  
G01 X-1.9936 Y0.8327  
G01 X-1.9910 Y0.8373  
G01 X-1.9285 Y0.8998  
G01 X-1.9248 Y0.9035  
G01 X-1.9202 Y0.9061  
G01 X-1.9151 Y0.9075  
G01 X-1.8833 Y0.9075  
G01 X-1.8330 Y0.9578  
G01 X-1.8330 Y0.9637  
G01 X-1.8137 Y0.9830  
G01 X-1.7953 Y0.9830  
G01 X-1.7200 Y1.0583  
G01 X-1.7200 Y1.0737  
G01 X-1.7210 Y1.0744  
G01 X-1.7256 Y1.0790  
G01 X-1.7292 Y1.0844  
G01 X-1.7317 Y1.0904  
G01 X-1.7330 Y1.0967  
G01 X-1.7330 Y1.1033  
G01 X-1.7317 Y1.1096  
G01 X-1.7292 Y1.1156  
G01 X-1.7256 Y1.1210  
G01 X-1.7210 Y1.1256  
G01 X-1.7156 Y1.1292  
G01 X-1.7096 Y1.1317  
G01 X-1.7033 Y1.1330  
G01 X-1.6967 Y1.1330  
G01 X-1.6904 Y1.1317  
G01 X-1.6844 Y1.1292  
G01 X-1.6790 Y1.1256  
G01 X-1.6744 Y1.1210  
G01 X-1.6708 Y1.1156  
G01 X-1.6683 Y1.1096  
G01 X-1.6670 Y1.1033  
G01 X-1.6670 Y1.0967  
G01 X-1.6683 Y1.0904  
G01 X-1.6708 Y1.0844  
G01 X-1.6744 Y1.0790  
G01 X-1.6790 Y1.0744  
G01 X-1.6800 Y1.0737  
G01 X-1.6800 Y1.0474  
G01 X-1.6814 Y1.0423  
G01 X-1.6840 Y1.0377  
G01 X-1.7670 Y0.9547  
G01 X-1.7670 Y0.9363  
G01 X-1.7863 Y0.9170  
G01 X-1.8137 Y0.9170  
G01 X-1.8154 Y0.9188  
G01 X-1.8627 Y0.8715  
G01 X-1.8673 Y0.8689  
G01 X-1.8724 Y0.8675  
G01 X-1.9042 Y0.8675  
G01 X-1.9550 Y0.8167  
G01 X-1.9550 Y0.7833  
G01 X-1.8167 Y0.6450  
G01 X-1.6108 Y0.6450  
G01 X-1.4470 Y0.8088  
G01 X-1.4455 Y0.8104  
G01 X-1.4451 Y0.8107  
G01 X-1.4448 Y0.8110  
G01 X-1.4429 Y0.8121  
G01 X-1.4411 Y0.8132  
G01 X-1.4406 Y0.8134  
G01 X-1.4402 Y0.8136  
G01 X-1.4381 Y0.8142  
G01 X-1.4361 Y0.8149  
G01 X-1.4356 Y0.8149  
G01 X-1.4351 Y0.8150  
G01 X-1.4330 Y0.8150  
G01 X-1.2243 Y0.8249  
G01 X-1.2226 Y0.8252  
G01 X-1.2217 Y0.8251  
G01 X-1.2208 Y0.8251  
G01 X-1.2191 Y0.8247  
G01 X-1.2174 Y0.8245  
G01 X-1.2165 Y0.8242  
G01 X-1.2157 Y0.8240  
G01 X-1.2141 Y0.8232  
G01 X-1.2125 Y0.8225  
G01 X-1.2118 Y0.8220  
G01 X-1.2110 Y0.8216  
G01 X-1.2097 Y0.8204  
G01 X-1.2083 Y0.8193  
G01 X-1.2078 Y0.8186  
G01 X-1.2071 Y0.8180  
G01 X-1.2062 Y0.8166  
G01 X-1.0350 Y0.5958  
G01 X-1.0340 Y0.5948  
G01 X-1.0334 Y0.5937  
G01 X-1.0326 Y0.5927  
G01 X-1.0320 Y0.5914  
G01 X-1.0314 Y0.5902  
G01 X-1.0310 Y0.5890  
G01 X-1.0305 Y0.5878  
G01 X-1.0304 Y0.5865  
G01 X-1.0300 Y0.5851  
G01 X-1.0300 Y0.5839  
G01 X-1.0298 Y0.5826  
G01 X-1.0300 Y0.5812  
G01 X-1.0300 Y0.5054  
G01 X-0.9530 Y0.3742  
G01 X-0.5640 Y0.3450  
G01 X-0.5619 Y0.3449  
G01 X-0.5614 Y0.3448  
G01 X-0.5609 Y0.3447  
G01 X-0.5589 Y0.3440  
G01 X-0.5568 Y0.3434  
G01 X-0.5564 Y0.3432  
G01 X-0.5559 Y0.3430  
G01 X-0.5541 Y0.3418  
G01 X-0.5523 Y0.3407  
G01 X-0.5520 Y0.3403  
G01 X-0.5516 Y0.3400  
G01 X-0.5502 Y0.3384  
G01 X-0.3564 Y0.1350  
G01 X-0.1513 Y0.1350  
G01 X-0.0450 Y0.2503  
G01 X-0.0450 Y1.0965  
G01 X-0.2956 Y1.3375  
G01 X-0.6487 Y1.3375  
G01 X-0.6500 Y1.3373  
G01 X-0.6513 Y1.3375  
G01 X-0.6526 Y1.3375  
G01 X-0.6539 Y1.3378  
G01 X-0.6552 Y1.3380  
G01 X-0.6564 Y1.3385  
G01 X-0.6577 Y1.3389  
G01 X-0.6589 Y1.3395  
G01 X-0.6601 Y1.3400  
G01 X-0.6611 Y1.3408  
G01 X-0.6623 Y1.3415  
G01 X-0.6632 Y1.3424  
G01 X-0.6642 Y1.3432  
G01 X-0.6651 Y1.3443  
G01 X-0.6660 Y1.3452  
G01 X-0.6667 Y1.3464  
G01 X-0.7651 Y1.4743  
G01 X-0.7660 Y1.4752  
G01 X-0.7667 Y1.4764  
G01 X-0.7673 Y1.4771  
G01 X-0.7673 Y1.4710  
G01 X-0.7685 Y1.4647  
G01 X-0.7710 Y1.4587  
G01 X-0.7746 Y1.4534  
G01 X-0.7791 Y1.4488  
G01 X-0.7845 Y1.4452  
G01 X-0.7904 Y1.4428  
G01 X-0.7968 Y1.4415  
G01 X-0.8032 Y1.4415  
G01 X-0.8096 Y1.4428  
G01 X-0.8155 Y1.4452  
G01 X-0.8209 Y1.4488  
G01 X-0.8254 Y1.4534  
G01 X-0.8290 Y1.4587  
G01 X-0.8315 Y1.4647  
G01 X-0.8327 Y1.4710  
G01 X-0.8327 Y1.5290  
G01 X-0.8315 Y1.5353  
G01 X-0.8290 Y1.5413  
G01 X-0.8254 Y1.5466  
G01 X-0.8209 Y1.5512  
G01 X-0.8155 Y1.5548  
G01 X-0.8096 Y1.5572  
G01 X-0.8032 Y1.5585  
G01 X-0.7968 Y1.5585  
G01 X-0.7904 Y1.5572  
G01 X-0.7845 Y1.5548  
G01 X-0.7791 Y1.5512  
G01 X-0.7746 Y1.5466  
G01 X-0.7710 Y1.5413  
G01 X-0.7685 Y1.5353  
G01 X-0.7673 Y1.5290  
G01 X-0.7673 Y1.5200  
G01 X-0.7613 Y1.5200  
G01 X-0.7222 Y1.5851  
G01 X-0.7210 Y1.5873  
G01 X-0.7209 Y1.5874  
G01 X-0.7208 Y1.5875  
G01 X-0.7190 Y1.5893  
G01 X-0.7173 Y1.5910  
G01 X-0.7171 Y1.5911  
G01 X-0.7170 Y1.5912  
G01 X-0.7149 Y1.5924  
G01 X-0.7127 Y1.5936  
G01 X-0.7126 Y1.5937  
G01 X-0.7124 Y1.5938  
G01 X-0.7100 Y1.5944  
G01 X-0.7076 Y1.5950  
G01 X-0.7075 Y1.5950  
G01 X-0.7073 Y1.5950  
G01 X-0.7048 Y1.5950  
G01 X-0.5452 Y1.5950  
G01 X-0.5427 Y1.5950  
G01 X-0.5425 Y1.5950  
G01 X-0.5424 Y1.5950  
G01 X-0.5400 Y1.5944  
G01 X-0.5376 Y1.5938  
G01 X-0.5374 Y1.5937  
G01 X-0.5373 Y1.5936  
G01 X-0.5351 Y1.5924  
G01 X-0.5330 Y1.5912  
G01 X-0.5329 Y1.5911  
G01 X-0.5327 Y1.5910  
G01 X-0.5310 Y1.5893  
G01 X-0.5292 Y1.5875  
G01 X-0.5291 Y1.5874  
G01 X-0.5290 Y1.5873  
G01 X-0.5278 Y1.5851  
G01 X-0.5031 Y1.5440  
G01 X-0.4965 Y1.5440  
G01 X-0.4897 Y1.5429  
G01 X-0.4831 Y1.5408  
G01 X-0.4769 Y1.5376  
G01 X-0.4713 Y1.5336  
G01 X-0.4664 Y1.5287  
G01 X-0.4624 Y1.5231  
G01 X-0.4592 Y1.5169  
G01 X-0.4571 Y1.5103  
G01 X-0.4560 Y1.5035  
G01 X-0.4560 Y1.4965  
G01 X-0.4571 Y1.4897  
G01 X-0.4592 Y1.4831  
G01 X-0.4624 Y1.4769  
G01 X-0.4664 Y1.4713  
G01 X-0.4713 Y1.4664  
G01 X-0.4769 Y1.4624  
G01 X-0.4831 Y1.4592  
G01 X-0.4897 Y1.4571  
G01 X-0.4965 Y1.4560  
G01 X-0.5035 Y1.4560  
G01 X-0.5103 Y1.4571  
G01 X-0.5169 Y1.4592  
G01 X-0.5231 Y1.4624  
G01 X-0.5287 Y1.4664  
G01 X-0.5336 Y1.4713  
G01 X-0.5376 Y1.4769  
G01 X-0.5408 Y1.4831  
G01 X-0.5429 Y1.4897  
G01 X-0.5440 Y1.4965  
G01 X-0.5440 Y1.5035  
G01 X-0.5429 Y1.5103  
G01 X-0.5408 Y1.5169  
G01 X-0.5376 Y1.5231  
G01 X-0.5374 Y1.5234  
G01 X-0.5563 Y1.5550  
G01 X-0.6937 Y1.5550  
G01 X-0.7300 Y1.4945  
G01 X-0.7300 Y1.4943  
G01 X-0.6402 Y1.3775  
G01 X-0.2877 Y1.3775  
G01 X-0.2853 Y1.3775  
G01 X-0.2851 Y1.3775  
G01 X-0.2849 Y1.3775  
G01 X-0.2825 Y1.3769  
G01 X-0.2801 Y1.3763  
G01 X-0.2800 Y1.3762  
G01 X-0.2798 Y1.3761  
G01 X-0.2777 Y1.3749  
G01 X-0.2755 Y1.3737  
G01 X-0.2754 Y1.3736  
G01 X-0.2752 Y1.3735  
G01 X-0.2735 Y1.3718  
G01 X-0.0129 Y1.1211  
G01 X-0.0127 Y1.1210  
G01 X-0.0110 Y1.1193  
G01 X-0.0092 Y1.1176  
G01 X-0.0091 Y1.1174  
G01 X-0.0090 Y1.1173  
G01 X-0.0078 Y1.1152  
G01 X-0.0065 Y1.1131  
G01 X-0.0065 Y1.1129  
G01 X-0.0064 Y1.1127  
G01 X-0.0057 Y1.1104  
G01 X-0.0051 Y1.1080  
G01 X-0.0051 Y1.1078  
G01 X-0.0050 Y1.1076  
G01 X-0.0050 Y1.1052  
G01 X-0.0050 Y1.1028  
G01 X-0.0050 Y1.1026  
G01 X-0.0050 Y0.2429  
G01 X-0.0049 Y0.2407  
G01 X-0.0050 Y0.2403  
G01 X-0.0050 Y0.2399  
G01 X-0.0056 Y0.2377  
G01 X-0.0061 Y0.2355  
G01 X-0.0063 Y0.2352  
G01 X-0.0064 Y0.2348  
G01 X-0.0075 Y0.2329  
G01 X-0.0085 Y0.2309  
G01 X-0.0088 Y0.2306  
G01 X-0.0090 Y0.2302  
G01 X-0.0106 Y0.2286  
G01 X-0.1263 Y0.1031  
G01 X-0.1265 Y0.1027  
G01 X-0.1281 Y0.1011  
G01 X-0.1296 Y0.0995  
G00 Z0.0500  
G00 X-0.1519 Y0.1597  
G01 Z-0.0040 F10    
G01 X-0.1523 Y0.1594  F20    
G01 X-0.1527 Y0.1590  
G01 X-0.1545 Y0.1579  
G01 X-0.1563 Y0.1568  
G01 X-0.1568 Y0.1566  
G01 X-0.1573 Y0.1564  
G01 X-0.1593 Y0.1558  
G01 X-0.1613 Y0.1552  
G01 X-0.1619 Y0.1551  
G01 X-0.1624 Y0.1550  
G01 X-0.1645 Y0.1550  
G01 X-0.1666 Y0.1549  
G01 X-0.1671 Y0.1550  
G01 X-0.2351 Y0.1550  
G01 X-0.2402 Y0.1564  
G01 X-0.2448 Y0.1590  
G01 X-0.4658 Y0.3800  
G01 X-0.5608 Y0.3800  
G01 X-0.5624 Y0.3769  
G01 X-0.5664 Y0.3713  
G01 X-0.5713 Y0.3664  
G01 X-0.5769 Y0.3624  
G01 X-0.5831 Y0.3592  
G01 X-0.5897 Y0.3571  
G01 X-0.5965 Y0.3560  
G01 X-0.6035 Y0.3560  
G01 X-0.6103 Y0.3571  
G01 X-0.6169 Y0.3592  
G01 X-0.6231 Y0.3624  
G01 X-0.6287 Y0.3664  
G01 X-0.6336 Y0.3713  
G01 X-0.6376 Y0.3769  
G01 X-0.6408 Y0.3831  
G01 X-0.6429 Y0.3897  
G01 X-0.6440 Y0.3965  
G01 X-0.6440 Y0.4032  
G01 X-0.7208 Y0.4800  
G01 X-0.9108 Y0.4800  
G01 X-0.9124 Y0.4769  
G01 X-0.9164 Y0.4713  
G01 X-0.9213 Y0.4664  
G01 X-0.9269 Y0.4624  
G01 X-0.9331 Y0.4592  
G01 X-0.9397 Y0.4571  
G01 X-0.9465 Y0.4560  
G01 X-0.9535 Y0.4560  
G01 X-0.9603 Y0.4571  
G01 X-0.9669 Y0.4592  
G01 X-0.9731 Y0.4624  
G01 X-0.9787 Y0.4664  
G01 X-0.9836 Y0.4713  
G01 X-0.9876 Y0.4769  
G01 X-0.9908 Y0.4831  
G01 X-0.9929 Y0.4897  
G01 X-0.9940 Y0.4965  
G01 X-0.9940 Y0.5035  
G01 X-0.9929 Y0.5103  
G01 X-0.9908 Y0.5169  
G01 X-0.9876 Y0.5231  
G01 X-0.9836 Y0.5287  
G01 X-0.9787 Y0.5336  
G01 X-0.9731 Y0.5376  
G01 X-0.9700 Y0.5392  
G01 X-0.9700 Y0.5491  
G01 X-1.0581 Y0.6848  
G01 X-1.0585 Y0.6852  
G01 X-1.0596 Y0.6870  
G01 X-1.0607 Y0.6888  
G01 X-1.0609 Y0.6893  
G01 X-1.0611 Y0.6898  
G01 X-1.0617 Y0.6918  
G01 X-1.0623 Y0.6938  
G01 X-1.0624 Y0.6944  
G01 X-1.0625 Y0.6949  
G01 X-1.0625 Y0.6970  
G01 X-1.0626 Y0.6991  
G01 X-1.0625 Y0.6996  
G01 X-1.0625 Y0.7587  
G01 X-1.0645 Y0.7601  
G01 X-1.0699 Y0.7655  
G01 X-1.0741 Y0.7718  
G01 X-1.0770 Y0.7788  
G01 X-1.0785 Y0.7862  
G01 X-1.0785 Y0.7938  
G01 X-1.0770 Y0.8012  
G01 X-1.0741 Y0.8082  
G01 X-1.0699 Y0.8145  
G01 X-1.0645 Y0.8199  
G01 X-1.0582 Y0.8241  
G01 X-1.0512 Y0.8270  
G01 X-1.0438 Y0.8285  
G01 X-1.0362 Y0.8285  
G01 X-1.0288 Y0.8270  
G01 X-1.0218 Y0.8241  
G01 X-1.0155 Y0.8199  
G01 X-1.0101 Y0.8145  
G01 X-1.0059 Y0.8082  
G01 X-1.0030 Y0.8012  
G01 X-1.0015 Y0.7938  
G01 X-1.0015 Y0.7862  
G01 X-1.0030 Y0.7788  
G01 X-1.0059 Y0.7718  
G01 X-1.0101 Y0.7655  
G01 X-1.0155 Y0.7601  
G01 X-1.0218 Y0.7559  
G01 X-1.0225 Y0.7556  
G01 X-1.0225 Y0.7034  
G01 X-0.9344 Y0.5677  
G01 X-0.9340 Y0.5673  
G01 X-0.9329 Y0.5655  
G01 X-0.9318 Y0.5637  
G01 X-0.9316 Y0.5632  
G01 X-0.9314 Y0.5627  
G01 X-0.9308 Y0.5607  
G01 X-0.9302 Y0.5587  
G01 X-0.9301 Y0.5581  
G01 X-0.9300 Y0.5576  
G01 X-0.9300 Y0.5555  
G01 X-0.9299 Y0.5534  
G01 X-0.9300 Y0.5529  
G01 X-0.9300 Y0.5392  
G01 X-0.9269 Y0.5376  
G01 X-0.9213 Y0.5336  
G01 X-0.9164 Y0.5287  
G01 X-0.9124 Y0.5231  
G01 X-0.9108 Y0.5200  
G01 X-0.7099 Y0.5200  
G01 X-0.7048 Y0.5186  
G01 X-0.7002 Y0.5160  
G01 X-0.6223 Y0.4380  
G01 X-0.6169 Y0.4408  
G01 X-0.6103 Y0.4429  
G01 X-0.6035 Y0.4440  
G01 X-0.5965 Y0.4440  
G01 X-0.5897 Y0.4429  
G01 X-0.5831 Y0.4408  
G01 X-0.5769 Y0.4376  
G01 X-0.5713 Y0.4336  
G01 X-0.5664 Y0.4287  
G01 X-0.5624 Y0.4231  
G01 X-0.5608 Y0.4200  
G01 X-0.4549 Y0.4200  
G01 X-0.4498 Y0.4186  
G01 X-0.4452 Y0.4160  
G01 X-0.4415 Y0.4123  
G01 X-0.2242 Y0.1950  
G01 X-0.1739 Y0.1950  
G01 X-0.0950 Y0.2827  
G01 X-0.0950 Y0.7392  
G01 X-0.2510 Y0.8952  
G01 X-0.2536 Y0.8998  
G01 X-0.2550 Y0.9049  
G01 X-0.2550 Y1.0767  
G01 X-0.4458 Y1.2675  
G01 X-1.0267 Y1.2675  
G01 X-1.0576 Y1.2366  
G01 X-1.0654 Y1.2269  
G01 X-1.0673 Y1.2229  
G01 X-1.0673 Y1.1710  
G01 X-1.0685 Y1.1647  
G01 X-1.0710 Y1.1587  
G01 X-1.0746 Y1.1534  
G01 X-1.0791 Y1.1488  
G01 X-1.0845 Y1.1452  
G01 X-1.0904 Y1.1428  
G01 X-1.0968 Y1.1415  
G01 X-1.1032 Y1.1415  
G01 X-1.1096 Y1.1428  
G01 X-1.1155 Y1.1452  
G01 X-1.1209 Y1.1488  
G01 X-1.1254 Y1.1534  
G01 X-1.1290 Y1.1587  
G01 X-1.1315 Y1.1647  
G01 X-1.1327 Y1.1710  
G01 X-1.1327 Y1.2290  
G01 X-1.1315 Y1.2353  
G01 X-1.1290 Y1.2413  
G01 X-1.1254 Y1.2466  
G01 X-1.1209 Y1.2512  
G01 X-1.1155 Y1.2548  
G01 X-1.1096 Y1.2572  
G01 X-1.1032 Y1.2585  
G01 X-1.0968 Y1.2585  
G01 X-1.0921 Y1.2576  
G01 X-1.0891 Y1.2613  
G01 X-1.0885 Y1.2623  
G01 X-1.0874 Y1.2634  
G01 X-1.0865 Y1.2645  
G01 X-1.0856 Y1.2652  
G01 X-1.0510 Y1.2998  
G01 X-1.0473 Y1.3035  
G01 X-1.0427 Y1.3061  
G01 X-1.0376 Y1.3075  
G01 X-0.4349 Y1.3075  
G01 X-0.4298 Y1.3061  
G01 X-0.4252 Y1.3035  
G01 X-0.2227 Y1.1010  
G01 X-0.2190 Y1.0973  
G01 X-0.2164 Y1.0927  
G01 X-0.2150 Y1.0876  
G01 X-0.2150 Y0.9158  
G01 X-0.0627 Y0.7635  
G01 X-0.0590 Y0.7598  
G01 X-0.0564 Y0.7552  
G01 X-0.0550 Y0.7501  
G01 X-0.0550 Y0.2755  
G01 X-0.0549 Y0.2734  
G01 X-0.0550 Y0.2729  
G01 X-0.0550 Y0.2724  
G01 X-0.0555 Y0.2703  
G01 X-0.0560 Y0.2683  
G01 X-0.0562 Y0.2678  
G01 X-0.0564 Y0.2673  
G01 X-0.0574 Y0.2655  
G01 X-0.0584 Y0.2636  
G01 X-0.0587 Y0.2632  
G01 X-0.0590 Y0.2627  
G01 X-0.0605 Y0.2612  
G01 X-0.1487 Y0.1632  
G01 X-0.1490 Y0.1627  
G01 X-0.1505 Y0.1612  
G01 X-0.1519 Y0.1597  
G00 Z0.0500  
G00 X-0.1664 Y0.2213  
G01 Z-0.0040 F10    
G01 X-0.1713 Y0.2164  F20    
G01 X-0.1769 Y0.2124  
G01 X-0.1831 Y0.2092  
G01 X-0.1897 Y0.2071  
G01 X-0.1965 Y0.2060  
G01 X-0.2035 Y0.2060  
G01 X-0.2103 Y0.2071  
G01 X-0.2169 Y0.2092  
G01 X-0.2231 Y0.2124  
G01 X-0.2287 Y0.2164  
G01 X-0.2336 Y0.2213  
G01 X-0.2376 Y0.2269  
G01 X-0.2408 Y0.2331  
G01 X-0.2429 Y0.2397  
G01 X-0.2440 Y0.2465  
G01 X-0.2440 Y0.2535  
G01 X-0.2429 Y0.2603  
G01 X-0.2408 Y0.2669  
G01 X-0.2376 Y0.2731  
G01 X-0.2336 Y0.2787  
G01 X-0.2287 Y0.2836  
G01 X-0.2231 Y0.2876  
G01 X-0.2200 Y0.2892  
G01 X-0.2200 Y0.3026  
G01 X-0.2186 Y0.3077  
G01 X-0.2160 Y0.3123  
G01 X-0.1450 Y0.3833  
G01 X-0.1450 Y0.5767  
G01 X-0.1581 Y0.5636  
G01 X-0.1571 Y0.5603  
G01 X-0.1560 Y0.5535  
G01 X-0.1560 Y0.5465  
G01 X-0.1571 Y0.5397  
G01 X-0.1592 Y0.5331  
G01 X-0.1624 Y0.5269  
G01 X-0.1664 Y0.5213  
G01 X-0.1713 Y0.5164  
G01 X-0.1769 Y0.5124  
G01 X-0.1831 Y0.5092  
G01 X-0.1897 Y0.5071  
G01 X-0.1965 Y0.5060  
G01 X-0.2035 Y0.5060  
G01 X-0.2103 Y0.5071  
G01 X-0.2169 Y0.5092  
G01 X-0.2231 Y0.5124  
G01 X-0.2287 Y0.5164  
G01 X-0.2336 Y0.5213  
G01 X-0.2376 Y0.5269  
G01 X-0.2408 Y0.5331  
G01 X-0.2429 Y0.5397  
G01 X-0.2440 Y0.5465  
G01 X-0.2440 Y0.5535  
G01 X-0.2429 Y0.5603  
G01 X-0.2408 Y0.5669  
G01 X-0.2376 Y0.5731  
G01 X-0.2336 Y0.5787  
G01 X-0.2287 Y0.5836  
G01 X-0.2231 Y0.5876  
G01 X-0.2169 Y0.5908  
G01 X-0.2103 Y0.5929  
G01 X-0.2035 Y0.5940  
G01 X-0.1965 Y0.5940  
G01 X-0.1897 Y0.5929  
G01 X-0.1864 Y0.5919  
G01 X-0.1450 Y0.6333  
G01 X-0.1450 Y0.7167  
G01 X-0.3493 Y0.9210  
G01 X-0.3529 Y0.9210  
G01 X-0.3585 Y0.9221  
G01 X-0.3637 Y0.9243  
G01 X-0.3685 Y0.9275  
G01 X-0.3725 Y0.9315  
G01 X-0.3757 Y0.9363  
G01 X-0.3779 Y0.9415  
G01 X-0.3790 Y0.9471  
G01 X-0.3790 Y0.9529  
G01 X-0.3779 Y0.9585  
G01 X-0.3757 Y0.9637  
G01 X-0.3725 Y0.9685  
G01 X-0.3685 Y0.9725  
G01 X-0.3637 Y0.9757  
G01 X-0.3585 Y0.9779  
G01 X-0.3529 Y0.9790  
G01 X-0.3471 Y0.9790  
G01 X-0.3415 Y0.9779  
G01 X-0.3363 Y0.9757  
G01 X-0.3315 Y0.9725  
G01 X-0.3275 Y0.9685  
G01 X-0.3243 Y0.9637  
G01 X-0.3221 Y0.9585  
G01 X-0.3210 Y0.9529  
G01 X-0.3210 Y0.9493  
G01 X-0.1127 Y0.7410  
G01 X-0.1090 Y0.7373  
G01 X-0.1064 Y0.7327  
G01 X-0.1050 Y0.7276  
G01 X-0.1050 Y0.3724  
G01 X-0.1064 Y0.3673  
G01 X-0.1090 Y0.3627  
G01 X-0.1127 Y0.3590  
G01 X-0.1800 Y0.2917  
G01 X-0.1800 Y0.2892  
G01 X-0.1769 Y0.2876  
G01 X-0.1713 Y0.2836  
G01 X-0.1664 Y0.2787  
G01 X-0.1624 Y0.2731  
G01 X-0.1592 Y0.2669  
G01 X-0.1571 Y0.2603  
G01 X-0.1560 Y0.2535  
G01 X-0.1560 Y0.2465  
G01 X-0.1571 Y0.2397  
G01 X-0.1592 Y0.2331  
G01 X-0.1624 Y0.2269  
G01 X-0.1664 Y0.2213  
G00 Z0.0500  
G00 X-0.1664 Y0.3713  
G01 Z-0.0040 F10    
G01 X-0.1713 Y0.3664  F20    
G01 X-0.1769 Y0.3624  
G01 X-0.1831 Y0.3592  
G01 X-0.1897 Y0.3571  
G01 X-0.1965 Y0.3560  
G01 X-0.2035 Y0.3560  
G01 X-0.2103 Y0.3571  
G01 X-0.2169 Y0.3592  
G01 X-0.2231 Y0.3624  
G01 X-0.2287 Y0.3664  
G01 X-0.2336 Y0.3713  
G01 X-0.2376 Y0.3769  
G01 X-0.2408 Y0.3831  
G01 X-0.2429 Y0.3897  
G01 X-0.2440 Y0.3965  
G01 X-0.2440 Y0.4035  
G01 X-0.2429 Y0.4103  
G01 X-0.2419 Y0.4136  
G01 X-0.7750 Y0.9467  
G01 X-0.7925 Y0.9292  
G01 X-0.7925 Y0.7758  
G01 X-0.7454 Y0.7286  
G01 X-0.7415 Y0.7279  
G01 X-0.7363 Y0.7257  
G01 X-0.7315 Y0.7225  
G01 X-0.7275 Y0.7185  
G01 X-0.7243 Y0.7137  
G01 X-0.7221 Y0.7085  
G01 X-0.7210 Y0.7029  
G01 X-0.7210 Y0.6971  
G01 X-0.7221 Y0.6915  
G01 X-0.7243 Y0.6863  
G01 X-0.7275 Y0.6815  
G01 X-0.7315 Y0.6775  
G01 X-0.7363 Y0.6743  
G01 X-0.7415 Y0.6721  
G01 X-0.7471 Y0.6710  
G01 X-0.7529 Y0.6710  
G01 X-0.7585 Y0.6721  
G01 X-0.7637 Y0.6743  
G01 X-0.7685 Y0.6775  
G01 X-0.7725 Y0.6815  
G01 X-0.7757 Y0.6863  
G01 X-0.7779 Y0.6915  
G01 X-0.7790 Y0.6971  
G01 X-0.7790 Y0.7029  
G01 X-0.7785 Y0.7052  
G01 X-0.8248 Y0.7515  
G01 X-0.8285 Y0.7552  
G01 X-0.8311 Y0.7598  
G01 X-0.8325 Y0.7649  
G01 X-0.8325 Y0.9401  
G01 X-0.8311 Y0.9452  
G01 X-0.8285 Y0.9498  
G01 X-0.7910 Y0.9873  
G01 X-0.7873 Y0.9910  
G01 X-0.7450 Y1.0333  
G01 X-0.7450 Y1.1167  
G01 X-0.7781 Y1.1498  
G01 X-0.7791 Y1.1488  
G01 X-0.7845 Y1.1452  
G01 X-0.7904 Y1.1428  
G01 X-0.7968 Y1.1415  
G01 X-0.8032 Y1.1415  
G01 X-0.8096 Y1.1428  
G01 X-0.8155 Y1.1452  
G01 X-0.8209 Y1.1488  
G01 X-0.8254 Y1.1534  
G01 X-0.8290 Y1.1587  
G01 X-0.8315 Y1.1647  
G01 X-0.8327 Y1.1710  
G01 X-0.8327 Y1.2290  
G01 X-0.8315 Y1.2353  
G01 X-0.8290 Y1.2413  
G01 X-0.8254 Y1.2466  
G01 X-0.8209 Y1.2512  
G01 X-0.8155 Y1.2548  
G01 X-0.8096 Y1.2572  
G01 X-0.8032 Y1.2585  
G01 X-0.7968 Y1.2585  
G01 X-0.7904 Y1.2572  
G01 X-0.7845 Y1.2548  
G01 X-0.7791 Y1.2512  
G01 X-0.7746 Y1.2466  
G01 X-0.7710 Y1.2413  
G01 X-0.7685 Y1.2353  
G01 X-0.7673 Y1.2290  
G01 X-0.7673 Y1.1955  
G01 X-0.7090 Y1.1373  
G01 X-0.7064 Y1.1327  
G01 X-0.7050 Y1.1276  
G01 X-0.7050 Y1.0224  
G01 X-0.7064 Y1.0173  
G01 X-0.7090 Y1.0127  
G01 X-0.7127 Y1.0090  
G01 X-0.7467 Y0.9750  
G01 X-0.2136 Y0.4419  
G01 X-0.2103 Y0.4429  
G01 X-0.2035 Y0.4440  
G01 X-0.1965 Y0.4440  
G01 X-0.1897 Y0.4429  
G01 X-0.1831 Y0.4408  
G01 X-0.1769 Y0.4376  
G01 X-0.1713 Y0.4336  
G01 X-0.1664 Y0.4287  
G01 X-0.1624 Y0.4231  
G01 X-0.1592 Y0.4169  
G01 X-0.1571 Y0.4103  
G01 X-0.1560 Y0.4035  
G01 X-0.1560 Y0.3965  
G01 X-0.1571 Y0.3897  
G01 X-0.1592 Y0.3831  
G01 X-0.1624 Y0.3769  
G01 X-0.1664 Y0.3713  
G00 Z0.0500  
G00 X-0.1664 Y0.6713  
G01 Z-0.0040 F10    
G01 X-0.1713 Y0.6664  F20    
G01 X-0.1769 Y0.6624  
G01 X-0.1831 Y0.6592  
G01 X-0.1897 Y0.6571  
G01 X-0.1965 Y0.6560  
G01 X-0.2035 Y0.6560  
G01 X-0.2103 Y0.6571  
G01 X-0.2169 Y0.6592  
G01 X-0.2231 Y0.6624  
G01 X-0.2287 Y0.6664  
G01 X-0.2336 Y0.6713  
G01 X-0.2376 Y0.6769  
G01 X-0.2392 Y0.6800  
G01 X-0.2901 Y0.6800  
G01 X-0.2952 Y0.6814  
G01 X-0.2998 Y0.6840  
G01 X-0.5390 Y0.9232  
G01 X-0.5415 Y0.9221  
G01 X-0.5471 Y0.9210  
G01 X-0.5529 Y0.9210  
G01 X-0.5585 Y0.9221  
G01 X-0.5637 Y0.9243  
G01 X-0.5685 Y0.9275  
G01 X-0.5725 Y0.9315  
G01 X-0.5757 Y0.9363  
G01 X-0.5779 Y0.9415  
G01 X-0.5790 Y0.9471  
G01 X-0.5790 Y0.9529  
G01 X-0.5779 Y0.9585  
G01 X-0.5757 Y0.9637  
G01 X-0.5725 Y0.9685  
G01 X-0.5700 Y0.9710  
G01 X-0.5700 Y1.0526  
G01 X-0.5686 Y1.0577  
G01 X-0.5660 Y1.0623  
G01 X-0.5623 Y1.0660  
G01 X-0.5419 Y1.0864  
G01 X-0.5429 Y1.0897  
G01 X-0.5440 Y1.0965  
G01 X-0.5440 Y1.1035  
G01 X-0.5429 Y1.1103  
G01 X-0.5408 Y1.1169  
G01 X-0.5376 Y1.1231  
G01 X-0.5336 Y1.1287  
G01 X-0.5287 Y1.1336  
G01 X-0.5231 Y1.1376  
G01 X-0.5169 Y1.1408  
G01 X-0.5103 Y1.1429  
G01 X-0.5035 Y1.1440  
G01 X-0.4965 Y1.1440  
G01 X-0.4897 Y1.1429  
G01 X-0.4831 Y1.1408  
G01 X-0.4769 Y1.1376  
G01 X-0.4713 Y1.1336  
G01 X-0.4664 Y1.1287  
G01 X-0.4624 Y1.1231  
G01 X-0.4592 Y1.1169  
G01 X-0.4571 Y1.1103  
G01 X-0.4560 Y1.1035  
G01 X-0.4560 Y1.0965  
G01 X-0.4571 Y1.0897  
G01 X-0.4592 Y1.0831  
G01 X-0.4624 Y1.0769  
G01 X-0.4664 Y1.0713  
G01 X-0.4713 Y1.0664  
G01 X-0.4769 Y1.0624  
G01 X-0.4831 Y1.0592  
G01 X-0.4897 Y1.0571  
G01 X-0.4965 Y1.0560  
G01 X-0.5035 Y1.0560  
G01 X-0.5103 Y1.0571  
G01 X-0.5136 Y1.0581  
G01 X-0.5300 Y1.0417  
G01 X-0.5300 Y0.9710  
G01 X-0.5275 Y0.9685  
G01 X-0.5262 Y0.9666  
G01 X-0.5252 Y0.9660  
G01 X-0.5215 Y0.9623  
G01 X-0.2792 Y0.7200  
